;START_OF_HEADER
;HEADER_VERSION:0.1
;FLAVOR:Griffin
;GENERATOR.NAME:Cura_SteamEngine
;GENERATOR.VERSION:4.3.0
;GENERATOR.BUILD_DATE:2019-09-24
;TARGET_MACHINE.NAME:Ultimaker 3
;EXTRUDER_TRAIN.0.INITIAL_TEMPERATURE:210
;EXTRUDER_TRAIN.0.MATERIAL.VOLUME_USED:25310
;EXTRUDER_TRAIN.0.MATERIAL.GUID:506c9f0d-e3aa-4bd4-b2d2-23e2425b1aa9
;EXTRUDER_TRAIN.0.NOZZLE.DIAMETER:0.4
;EXTRUDER_TRAIN.0.NOZZLE.NAME:AA 0.4
;BUILD_PLATE.TYPE:glass
;BUILD_PLATE.INITIAL_TEMPERATURE:60
;PRINT.TIME:9314
;PRINT.GROUPS:1
;PRINT.SIZE.MIN.X:9
;PRINT.SIZE.MIN.Y:6
;PRINT.SIZE.MIN.Z:0.27
;PRINT.SIZE.MAX.X:148.43
;PRINT.SIZE.MAX.Y:159.43
;PRINT.SIZE.MAX.Z:37.87
;END_OF_HEADER
;Generated with Cura_SteamEngine 4.3.0
T0
M82 ;absolute extrusion mode

G92 E0
M109 S210
G0 F15000 X9 Y6 Z2
G280
G1 F1500 E-6.5
;LAYER_COUNT:189
;LAYER:0
M107
M204 S625
M205 X6 Y6
G1 F600 Z2.27
G0 F4285.7 X85.961 Y58.458 Z2.27
M204 S500
M205 X5 Y5
;TYPE:SKIRT
G1 F600 Z0.27
G1 F1500 E0
G1 F1200 X86.6 Y57.723 E0.01731
G1 X86.723 Y57.6 E0.0204
G1 X87.277 Y57.102 E0.03365
G1 X87.881 Y56.667 E0.04688
G1 X88.528 Y56.3 E0.0601
G1 X89.21 Y56.003 E0.07332
G1 X89.921 Y55.782 E0.08656
G1 X90.651 Y55.638 E0.09979
G1 X91.623 Y55.57 E0.11711
G1 X141.377 Y55.57 E1.00153
G1 X142.12 Y55.61 E1.01476
G1 X142.855 Y55.729 E1.02799
G1 X143.573 Y55.927 E1.04123
G1 X144.265 Y56.2 E1.05446
G1 X144.924 Y56.546 E1.06769
G1 X145.542 Y56.961 E1.08092
G1 X146.112 Y57.44 E1.09416
G1 X146.627 Y57.977 E1.10738
G1 X147.082 Y58.566 E1.12061
G1 X147.471 Y59.2 E1.13383
G1 X147.79 Y59.873 E1.14707
G1 X148.035 Y60.576 E1.16031
G1 X148.203 Y61.301 E1.17354
G1 X148.292 Y62.04 E1.18677
G1 X148.307 Y62.491 E1.19479
G1 X148.43 Y152.368 E2.79244
G1 X148.391 Y153.111 E2.80567
G1 X148.273 Y153.846 E2.8189
G1 X148.076 Y154.564 E2.83213
G1 X147.804 Y155.256 E2.84535
G1 X147.458 Y155.916 E2.8586
G1 X147.045 Y156.534 E2.87181
G1 X146.4 Y157.277 E2.8893
G1 X146.277 Y157.4 E2.89239
G1 X145.723 Y157.898 E2.90563
G1 X145.119 Y158.333 E2.91887
G1 X144.472 Y158.7 E2.93209
G1 X143.79 Y158.997 E2.94531
G1 X143.079 Y159.218 E2.95855
G1 X142.349 Y159.362 E2.97177
G1 X141.377 Y159.43 E2.98909
G1 X91.623 Y159.43 E3.87352
G1 X90.88 Y159.39 E3.88675
G1 X90.145 Y159.271 E3.89998
G1 X89.427 Y159.073 E3.91322
G1 X88.735 Y158.8 E3.92644
G1 X88.076 Y158.454 E3.93968
G1 X87.458 Y158.039 E3.95291
G1 X86.723 Y157.4 E3.97022
G1 X86.6 Y157.277 E3.97331
G1 X86.102 Y156.723 E3.98655
G1 X85.667 Y156.119 E3.99979
G1 X85.3 Y155.472 E4.01301
G1 X85.003 Y154.79 E4.02623
G1 X84.782 Y154.079 E4.03947
G1 X84.638 Y153.349 E4.05269
G1 X84.57 Y152.377 E4.07001
G1 X84.57 Y62.623 E5.66548
G1 X84.61 Y61.88 E5.67871
G1 X84.729 Y61.145 E5.69194
G1 X84.927 Y60.427 E5.70518
G1 X85.2 Y59.735 E5.7184
G1 X85.546 Y59.076 E5.73163
G1 X85.961 Y58.458 E5.74487
M204 S625
M205 X6 Y6
G0 F4285.7 X86.378 Y58.605
M204 S500
M205 X5 Y5
G1 F1200 X86.897 Y58.02 E5.75877
G1 X87.02 Y57.897 E5.76186
G1 X87.557 Y57.416 E5.77468
G1 X88.145 Y56.997 E5.78751
G1 X88.775 Y56.646 E5.80033
G1 X89.44 Y56.367 E5.81315
G1 X90.132 Y56.163 E5.82597
G1 X90.842 Y56.037 E5.83879
G1 X91.623 Y55.99 E5.8527
G1 X141.377 Y55.99 E6.73713
G1 X142.097 Y56.03 E6.74994
G1 X142.809 Y56.149 E6.76278
G1 X143.503 Y56.347 E6.77561
G1 X144.17 Y56.62 E6.78842
G1 X144.804 Y56.965 E6.80125
G1 X145.395 Y57.378 E6.81406
G1 X145.937 Y57.854 E6.82689
G1 X146.423 Y58.387 E6.83971
G1 X146.847 Y58.971 E6.85254
G1 X147.204 Y59.598 E6.86536
G1 X147.49 Y60.26 E6.87818
G1 X147.7 Y60.95 E6.891
G1 X147.832 Y61.659 E6.90382
G1 X147.887 Y62.491 E6.91864
G1 X148.01 Y152.368 E8.5163
G1 X147.971 Y153.088 E8.52911
G1 X147.853 Y153.8 E8.54194
G1 X147.656 Y154.494 E8.55477
G1 X147.384 Y155.162 E8.56759
G1 X147.04 Y155.796 E8.58041
G1 X146.627 Y156.388 E8.59324
G1 X146.103 Y156.98 E8.6073
G1 X145.98 Y157.103 E8.61039
G1 X145.443 Y157.584 E8.6232
G1 X144.855 Y158.003 E8.63604
G1 X144.225 Y158.354 E8.64886
G1 X143.56 Y158.633 E8.66168
G1 X142.868 Y158.837 E8.6745
G1 X142.158 Y158.963 E8.68732
G1 X141.377 Y159.01 E8.70123
G1 X91.623 Y159.01 E9.58565
G1 X90.903 Y158.97 E9.59847
G1 X90.191 Y158.851 E9.6113
G1 X89.497 Y158.653 E9.62413
G1 X88.83 Y158.38 E9.63694
G1 X88.196 Y158.035 E9.64977
G1 X87.605 Y157.622 E9.66259
G1 X87.02 Y157.103 E9.67649
G1 X86.897 Y156.98 E9.67958
G1 X86.416 Y156.443 E9.6924
G1 X85.997 Y155.855 E9.70523
G1 X85.646 Y155.225 E9.71805
G1 X85.367 Y154.56 E9.73087
G1 X85.163 Y153.868 E9.7437
G1 X85.037 Y153.158 E9.75652
G1 X84.99 Y152.377 E9.77042
G1 X84.99 Y62.623 E11.36589
G1 X85.03 Y61.903 E11.37871
G1 X85.149 Y61.191 E11.39154
G1 X85.347 Y60.497 E11.40437
G1 X85.62 Y59.83 E11.41718
G1 X85.965 Y59.196 E11.43001
G1 X86.378 Y58.605 E11.44283
M204 S625
M205 X6 Y6
G0 F4285.7 X86.795 Y58.757
M204 S500
M205 X5 Y5
G1 F1200 X87.194 Y58.317 E11.45338
G1 X87.317 Y58.194 E11.45648
G1 X87.838 Y57.729 E11.46889
G1 X88.408 Y57.328 E11.48128
G1 X89.021 Y56.994 E11.49369
G1 X89.668 Y56.732 E11.5061
G1 X90.34 Y56.547 E11.51849
G1 X91.029 Y56.439 E11.53088
G1 X91.623 Y56.41 E11.54145
G1 X141.377 Y56.41 E12.42588
G1 X142.074 Y56.45 E12.43829
G1 X142.761 Y56.569 E12.45068
G1 X143.43 Y56.767 E12.46309
G1 X144.073 Y57.039 E12.4755
G1 X144.679 Y57.383 E12.48788
G1 X145.243 Y57.795 E12.5003
G1 X145.756 Y58.268 E12.5127
G1 X146.211 Y58.796 E12.52509
G1 X146.603 Y59.373 E12.53749
G1 X146.926 Y59.992 E12.5499
G1 X147.177 Y60.643 E12.56231
G1 X147.351 Y61.319 E12.57471
G1 X147.447 Y62.01 E12.58712
G1 X147.467 Y62.492 E12.59569
G1 X147.59 Y152.369 E14.19334
G1 X147.551 Y153.065 E14.20574
G1 X147.433 Y153.753 E14.21814
G1 X147.236 Y154.422 E14.23054
G1 X146.965 Y155.065 E14.24294
G1 X146.621 Y155.672 E14.25535
G1 X146.211 Y156.237 E14.26776
G1 X145.806 Y156.683 E14.27847
G1 X145.683 Y156.806 E14.28156
G1 X145.162 Y157.271 E14.29397
G1 X144.592 Y157.672 E14.30636
G1 X143.979 Y158.006 E14.31877
G1 X143.332 Y158.268 E14.33118
G1 X142.66 Y158.453 E14.34357
G1 X141.971 Y158.561 E14.35596
G1 X141.377 Y158.59 E14.36654
G1 X91.623 Y158.59 E15.25096
G1 X90.926 Y158.55 E15.26337
G1 X90.239 Y158.431 E15.27577
G1 X89.57 Y158.233 E15.28817
G1 X88.927 Y157.961 E15.30058
G1 X88.321 Y157.617 E15.31297
G1 X87.757 Y157.205 E15.32538
G1 X87.317 Y156.806 E15.33594
G1 X87.194 Y156.683 E15.33903
G1 X86.729 Y156.162 E15.35144
G1 X86.328 Y155.592 E15.36383
G1 X85.994 Y154.979 E15.37624
G1 X85.732 Y154.332 E15.38865
G1 X85.547 Y153.66 E15.40104
G1 X85.439 Y152.971 E15.41344
G1 X85.41 Y152.377 E15.42401
G1 X85.41 Y62.623 E17.01947
G1 X85.45 Y61.926 E17.03188
G1 X85.569 Y61.239 E17.04428
G1 X85.767 Y60.57 E17.05668
G1 X86.039 Y59.927 E17.06909
G1 X86.383 Y59.321 E17.08148
G1 X86.795 Y58.757 E17.09389
M204 S625
M205 X6 Y6
G0 F4285.7 X86.801 Y59.45
M204 S500
M205 X5 Y5
G1 F1200 X87.21 Y58.915 E17.10586
G1 X87.491 Y58.614 E17.11318
G1 X87.614 Y58.491 E17.11628
G1 X88.117 Y58.044 E17.12824
G1 X88.67 Y57.66 E17.14021
G1 X89.265 Y57.344 E17.15218
G1 X89.892 Y57.101 E17.16413
G1 X90.544 Y56.934 E17.1761
G1 X91.212 Y56.845 E17.18808
G1 X91.623 Y56.83 E17.19539
G1 X141.377 Y56.83 E18.07981
G1 X142.049 Y56.87 E18.09178
G1 X142.712 Y56.989 E18.10376
G1 X143.355 Y57.186 E18.11571
G1 X143.971 Y57.458 E18.12768
G1 X144.55 Y57.801 E18.13964
G1 X145.085 Y58.21 E18.15161
G1 X145.567 Y58.68 E18.16358
G1 X145.99 Y59.204 E18.17555
G1 X146.349 Y59.774 E18.18753
G1 X146.637 Y60.382 E18.19948
G1 X146.851 Y61.02 E18.21145
G1 X146.987 Y61.68 E18.22343
G1 X147.047 Y62.492 E18.2379
G1 X147.17 Y152.369 E19.83555
G1 X147.131 Y153.041 E19.84752
G1 X147.013 Y153.704 E19.85949
G1 X146.816 Y154.348 E19.87146
G1 X146.545 Y154.964 E19.88342
G1 X146.203 Y155.544 E19.89539
G1 X145.795 Y156.079 E19.90735
G1 X145.509 Y156.386 E19.91481
G1 X145.386 Y156.509 E19.9179
G1 X144.883 Y156.956 E19.92986
G1 X144.33 Y157.34 E19.94183
G1 X143.735 Y157.656 E19.95381
G1 X143.108 Y157.899 E19.96576
G1 X142.456 Y158.066 E19.97772
G1 X141.788 Y158.155 E19.9897
G1 X141.377 Y158.17 E19.99701
G1 X91.623 Y158.17 E20.88144
G1 X90.951 Y158.13 E20.89341
G1 X90.288 Y158.011 E20.90538
G1 X89.645 Y157.814 E20.91733
G1 X89.029 Y157.542 E20.9293
G1 X88.45 Y157.199 E20.94127
G1 X87.915 Y156.79 E20.95324
G1 X87.614 Y156.509 E20.96056
G1 X87.491 Y156.386 E20.96365
G1 X87.044 Y155.883 E20.97561
G1 X86.66 Y155.33 E20.98758
G1 X86.344 Y154.735 E20.99956
G1 X86.101 Y154.108 E21.01151
G1 X85.934 Y153.456 E21.02347
G1 X85.845 Y152.788 E21.03545
G1 X85.83 Y152.377 E21.04276
G1 X85.83 Y62.623 E22.63823
G1 X85.87 Y61.951 E22.65019
G1 X85.989 Y61.288 E22.66217
G1 X86.186 Y60.645 E22.67412
G1 X86.458 Y60.029 E22.68609
G1 X86.801 Y59.45 E22.69806
M204 S625
M205 X6 Y6
G0 F4285.7 X87.219 Y59.584
M204 S500
M205 X5 Y5
G1 F1200 X87.788 Y58.911 E22.71372
G1 X87.911 Y58.788 E22.71681
G1 X88.396 Y58.359 E22.72832
G1 X88.931 Y57.993 E22.73985
G1 X89.506 Y57.696 E22.75135
G1 X90.114 Y57.472 E22.76287
G1 X90.745 Y57.324 E22.77439
G1 X91.623 Y57.25 E22.79005
G1 X141.377 Y57.25 E23.67448
G1 X142.024 Y57.29 E23.686
G1 X142.66 Y57.409 E23.6975
G1 X143.277 Y57.606 E23.70902
G1 X143.866 Y57.877 E23.72054
G1 X144.416 Y58.219 E23.73205
G1 X144.92 Y58.626 E23.74357
G1 X145.37 Y59.092 E23.75508
G1 X145.759 Y59.609 E23.76659
G1 X146.082 Y60.171 E23.77811
G1 X146.333 Y60.768 E23.78962
G1 X146.509 Y61.392 E23.80115
G1 X146.606 Y62.032 E23.81265
G1 X146.627 Y62.493 E23.82086
G1 X146.75 Y152.37 E25.41851
G1 X146.711 Y153.016 E25.43001
G1 X146.593 Y153.653 E25.44153
G1 X146.397 Y154.271 E25.45305
G1 X146.126 Y154.859 E25.46456
G1 X145.785 Y155.41 E25.47608
G1 X145.212 Y156.089 E25.49187
G1 X145.089 Y156.212 E25.49497
G1 X144.604 Y156.641 E25.50648
G1 X144.069 Y157.007 E25.518
G1 X143.494 Y157.304 E25.5295
G1 X142.886 Y157.528 E25.54102
G1 X142.255 Y157.676 E25.55254
G1 X141.377 Y157.75 E25.5682
G1 X91.623 Y157.75 E26.45263
G1 X90.976 Y157.71 E26.46415
G1 X90.34 Y157.591 E26.47566
G1 X89.723 Y157.394 E26.48717
G1 X89.134 Y157.123 E26.49869
G1 X88.584 Y156.781 E26.51021
G1 X87.911 Y156.212 E26.52587
G1 X87.788 Y156.089 E26.52896
G1 X87.359 Y155.604 E26.54047
G1 X86.993 Y155.069 E26.552
G1 X86.696 Y154.494 E26.5635
G1 X86.472 Y153.886 E26.57502
G1 X86.324 Y153.255 E26.58654
G1 X86.25 Y152.377 E26.6022
G1 X86.25 Y62.623 E28.19767
G1 X86.29 Y61.976 E28.20919
G1 X86.409 Y61.34 E28.22069
G1 X86.606 Y60.723 E28.23221
G1 X86.877 Y60.134 E28.24373
G1 X87.219 Y59.584 E28.25524
M204 S625
M205 X6 Y6
G0 F4285.7 X87.636 Y59.725
M204 S500
M205 X5 Y5
G1 F1200 X88.085 Y59.208 E28.26742
G1 X88.208 Y59.085 E28.27051
G1 X88.674 Y58.675 E28.28154
G1 X89.19 Y58.328 E28.29259
G1 X89.746 Y58.05 E28.30364
G1 X90.332 Y57.846 E28.31467
G1 X90.94 Y57.718 E28.32572
G1 X91.623 Y57.67 E28.33789
G1 X141.377 Y57.67 E29.22232
G1 X141.997 Y57.71 E29.23336
G1 X142.607 Y57.829 E29.24441
G1 X143.196 Y58.026 E29.25545
G1 X143.755 Y58.296 E29.26648
G1 X144.275 Y58.636 E29.27753
G1 X144.747 Y59.04 E29.28857
G1 X145.164 Y59.502 E29.29963
G1 X145.517 Y60.012 E29.31066
G1 X145.802 Y60.564 E29.3217
G1 X146.014 Y61.149 E29.33276
G1 X146.149 Y61.755 E29.3438
G1 X146.207 Y62.493 E29.35696
G1 X146.33 Y152.37 E30.95461
G1 X146.291 Y152.99 E30.96566
G1 X146.173 Y153.6 E30.9767
G1 X145.977 Y154.19 E30.98775
G1 X145.707 Y154.75 E30.9988
G1 X145.368 Y155.27 E31.00984
G1 X144.915 Y155.792 E31.02212
G1 X144.792 Y155.915 E31.02521
G1 X144.326 Y156.325 E31.03625
G1 X143.81 Y156.672 E31.0473
G1 X143.254 Y156.95 E31.05835
G1 X142.668 Y157.154 E31.06938
G1 X142.06 Y157.282 E31.08043
G1 X141.377 Y157.33 E31.0926
G1 X91.623 Y157.33 E31.97702
G1 X91.003 Y157.29 E31.98807
G1 X90.393 Y157.171 E31.99911
G1 X89.804 Y156.974 E32.01015
G1 X89.245 Y156.704 E32.02119
G1 X88.725 Y156.364 E32.03223
G1 X88.208 Y155.915 E32.04441
G1 X88.085 Y155.792 E32.0475
G1 X87.675 Y155.326 E32.05853
G1 X87.328 Y154.81 E32.06958
G1 X87.05 Y154.254 E32.08063
G1 X86.846 Y153.668 E32.09166
G1 X86.718 Y153.06 E32.10271
G1 X86.67 Y152.377 E32.11488
G1 X86.67 Y62.623 E33.71035
G1 X86.71 Y62.003 E33.72139
G1 X86.829 Y61.393 E33.73244
G1 X87.026 Y60.804 E33.74348
G1 X87.296 Y60.245 E33.75451
G1 X87.636 Y59.725 E33.76556
M204 S625
M205 X6 Y6
G0 F4285.7 X88.053 Y59.872
M204 S500
M205 X5 Y5
G1 F1200 X88.382 Y59.505 E33.77432
G1 X88.505 Y59.382 E33.77741
G1 X88.952 Y58.991 E33.78797
G1 X89.447 Y58.664 E33.79851
G1 X89.982 Y58.407 E33.80906
G1 X90.547 Y58.223 E33.81963
G1 X91.131 Y58.118 E33.83017
G1 X91.623 Y58.09 E33.83893
G1 X141.377 Y58.09 E34.72336
G1 X141.969 Y58.13 E34.73391
G1 X142.551 Y58.249 E34.74447
G1 X143.111 Y58.445 E34.75501
G1 X143.64 Y58.715 E34.76557
G1 X144.128 Y59.053 E34.77612
G1 X144.566 Y59.454 E34.78668
G1 X144.946 Y59.91 E34.79723
G1 X145.262 Y60.413 E34.80779
G1 X145.507 Y60.953 E34.81833
G1 X145.677 Y61.522 E34.82889
G1 X145.77 Y62.108 E34.83943
G1 X145.787 Y62.494 E34.8463
G1 X145.91 Y152.371 E36.44395
G1 X145.871 Y152.963 E36.4545
G1 X145.753 Y153.545 E36.46506
G1 X145.557 Y154.106 E36.47562
G1 X145.288 Y154.635 E36.48617
G1 X144.951 Y155.123 E36.49671
G1 X144.618 Y155.495 E36.50559
G1 X144.495 Y155.618 E36.50868
G1 X144.048 Y156.009 E36.51924
G1 X143.553 Y156.336 E36.52978
G1 X143.018 Y156.593 E36.54033
G1 X142.453 Y156.777 E36.55089
G1 X141.869 Y156.882 E36.56144
G1 X141.377 Y156.91 E36.5702
G1 X91.623 Y156.91 E37.45463
G1 X91.031 Y156.87 E37.46518
G1 X90.449 Y156.751 E37.47574
G1 X89.889 Y156.555 E37.48628
G1 X89.36 Y156.285 E37.49684
G1 X88.872 Y155.947 E37.50739
G1 X88.505 Y155.618 E37.51615
G1 X88.382 Y155.495 E37.51925
G1 X87.991 Y155.048 E37.5298
G1 X87.664 Y154.553 E37.54035
G1 X87.407 Y154.018 E37.5509
G1 X87.223 Y153.453 E37.56146
G1 X87.118 Y152.869 E37.57201
G1 X87.09 Y152.377 E37.58077
G1 X87.09 Y62.623 E39.17623
G1 X87.13 Y62.031 E39.18678
G1 X87.249 Y61.449 E39.19734
G1 X87.445 Y60.889 E39.20789
G1 X87.715 Y60.36 E39.21844
G1 X88.053 Y59.872 E39.229
M204 S625
M205 X6 Y6
G0 F4285.7 X88.469 Y60.028
M204 S500
M205 X5 Y5
G1 F1200 X88.679 Y59.802 E39.23448
G1 X88.802 Y59.679 E39.23757
G1 X89.228 Y59.309 E39.2476
G1 X89.703 Y59.003 E39.25765
G1 X90.216 Y58.766 E39.26769
G1 X90.757 Y58.605 E39.27773
G1 X91.315 Y58.522 E39.28775
G1 X91.623 Y58.51 E39.29323
G1 X141.377 Y58.51 E40.17766
G1 X141.94 Y58.55 E40.18769
G1 X142.492 Y58.669 E40.19773
G1 X143.022 Y58.865 E40.20777
G1 X143.518 Y59.133 E40.2178
G1 X143.972 Y59.469 E40.22784
G1 X144.374 Y59.866 E40.23788
G1 X144.716 Y60.315 E40.24791
G1 X144.991 Y60.809 E40.25796
G1 X145.193 Y61.336 E40.268
G1 X145.319 Y61.886 E40.27803
G1 X145.367 Y62.495 E40.28888
G1 X145.49 Y152.372 E41.88654
G1 X145.451 Y152.935 E41.89657
G1 X145.333 Y153.487 E41.9066
G1 X145.137 Y154.017 E41.91665
G1 X144.87 Y154.514 E41.92668
G1 X144.534 Y154.968 E41.93672
G1 X144.321 Y155.198 E41.94229
G1 X144.198 Y155.321 E41.94538
G1 X143.772 Y155.691 E41.95541
G1 X143.297 Y155.997 E41.96546
G1 X142.784 Y156.234 E41.9755
G1 X142.243 Y156.395 E41.98553
G1 X141.685 Y156.478 E41.99556
G1 X141.377 Y156.49 E42.00104
G1 X91.623 Y156.49 E42.88547
G1 X91.06 Y156.45 E42.8955
G1 X90.508 Y156.331 E42.90554
G1 X89.978 Y156.135 E42.91558
G1 X89.482 Y155.867 E42.9256
G1 X89.028 Y155.531 E42.93564
G1 X88.802 Y155.321 E42.94113
G1 X88.679 Y155.198 E42.94422
G1 X88.309 Y154.772 E42.95425
G1 X88.003 Y154.297 E42.9643
G1 X87.766 Y153.784 E42.97434
G1 X87.605 Y153.243 E42.98437
G1 X87.522 Y152.685 E42.9944
G1 X87.51 Y152.377 E42.99988
G1 X87.51 Y62.623 E44.59535
G1 X87.55 Y62.06 E44.60538
G1 X87.669 Y61.508 E44.61542
G1 X87.865 Y60.978 E44.62546
G1 X88.133 Y60.482 E44.63548
G1 X88.469 Y60.028 E44.64552
M204 S625
M205 X6 Y6
G0 F4285.7 X88.551 Y60.61
M204 S500
M205 X5 Y5
G1 F1200 X88.976 Y60.099 E44.65734
G1 X89.099 Y59.976 E44.66043
G1 X89.503 Y59.627 E44.66992
G1 X89.956 Y59.343 E44.67942
G1 X90.445 Y59.13 E44.68891
G1 X90.961 Y58.992 E44.6984
G1 X91.623 Y58.93 E44.71022
G1 X141.377 Y58.93 E45.59465
G1 X141.91 Y58.97 E45.60415
G1 X142.43 Y59.089 E45.61363
G1 X142.927 Y59.284 E45.62312
G1 X143.39 Y59.551 E45.63262
G1 X143.807 Y59.885 E45.64212
G1 X144.17 Y60.276 E45.6516
G1 X144.47 Y60.718 E45.6611
G1 X144.702 Y61.199 E45.67059
G1 X144.858 Y61.71 E45.68009
G1 X144.947 Y62.495 E45.69413
G1 X145.07 Y152.372 E47.29178
G1 X145.031 Y152.905 E47.30128
G1 X144.913 Y153.426 E47.31078
G1 X144.718 Y153.923 E47.32027
