;START_OF_HEADER
;HEADER_VERSION:0.1
;FLAVOR:Griffin
;GENERATOR.NAME:Cura_SteamEngine
;GENERATOR.VERSION:4.3.0
;GENERATOR.BUILD_DATE:2019-09-24
;TARGET_MACHINE.NAME:Ultimaker 3
;EXTRUDER_TRAIN.0.INITIAL_TEMPERATURE:210
;EXTRUDER_TRAIN.0.MATERIAL.VOLUME_USED:17856
;EXTRUDER_TRAIN.0.MATERIAL.GUID:506c9f0d-e3aa-4bd4-b2d2-23e2425b1aa9
;EXTRUDER_TRAIN.0.NOZZLE.DIAMETER:0.4
;EXTRUDER_TRAIN.0.NOZZLE.NAME:AA 0.4
;BUILD_PLATE.TYPE:glass
;BUILD_PLATE.INITIAL_TEMPERATURE:60
;PRINT.TIME:6499
;PRINT.GROUPS:1
;PRINT.SIZE.MIN.X:9
;PRINT.SIZE.MIN.Y:6
;PRINT.SIZE.MIN.Z:0.27
;PRINT.SIZE.MAX.X:150.43
;PRINT.SIZE.MAX.Y:140.93
;PRINT.SIZE.MAX.Z:19.87
;END_OF_HEADER
;Generated with Cura_SteamEngine 4.3.0
T0
M82 ;absolute extrusion mode

G92 E0
M109 S210
G0 F15000 X9 Y6 Z2
G280
G1 F1500 E-6.5
;LAYER_COUNT:99
;LAYER:0
M107
M204 S625
M205 X6 Y6
G1 F600 Z2.27
G0 F4285.7 X85.047 Y76.841 Z2.27
M204 S500
M205 X5 Y5
;TYPE:SKIRT
G1 F600 Z0.27
G1 F1500 E0
G1 F1200 X85.362 Y76.527 E0.00791
G1 X85.916 Y76.031 E0.02112
G1 X86.582 Y75.558 E0.03565
G1 X86.963 Y75.32 E0.04363
G1 X87.615 Y74.96 E0.05687
G1 X88.365 Y74.649 E0.0713
G1 X88.789 Y74.502 E0.07928
G1 X89.504 Y74.297 E0.0925
G1 X90.47 Y74.145 E0.10988
G1 X91.056 Y74.095 E0.12034
G1 X91.645 Y74.07 E0.13082
G1 X141.124 Y74.07 E1.01036
G1 X141.546 Y74.083 E1.01786
G1 X142.366 Y74.133 E1.03246
G1 X143.105 Y74.218 E1.04569
G1 X143.831 Y74.382 E1.05892
G1 X144.241 Y74.512 E1.06656
G1 X144.668 Y74.662 E1.07461
G1 X145.356 Y74.946 E1.08784
G1 X146.061 Y75.334 E1.10214
G1 X146.441 Y75.573 E1.11012
G1 X147.048 Y76.002 E1.12334
G1 X147.659 Y76.547 E1.13789
G1 X147.973 Y76.862 E1.1458
G1 X148.469 Y77.416 E1.15902
G1 X148.941 Y78.08 E1.1735
G1 X149.178 Y78.459 E1.18144
G1 X149.538 Y79.11 E1.19467
G1 X149.847 Y79.855 E1.209
G1 X149.996 Y80.283 E1.21706
G1 X150.202 Y80.998 E1.23029
G1 X150.338 Y81.791 E1.24459
G1 X150.387 Y82.229 E1.25242
G1 X150.43 Y82.999 E1.26613
G1 X150.43 Y131.668 E2.13127
G1 X150.416 Y132.107 E2.13908
G1 X150.367 Y132.879 E2.15283
G1 X150.28 Y133.618 E2.16606
G1 X150.114 Y134.344 E2.17929
G1 X149.994 Y134.723 E2.18636
G1 X149.845 Y135.15 E2.1944
G1 X149.562 Y135.839 E2.20764
G1 X149.177 Y136.543 E2.2219
G1 X148.938 Y136.925 E2.22991
G1 X148.51 Y137.534 E2.24315
G1 X147.963 Y138.149 E2.25778
G1 X147.649 Y138.463 E2.26567
G1 X147.095 Y138.961 E2.27891
G1 X146.432 Y139.434 E2.29339
G1 X146.051 Y139.673 E2.30138
G1 X145.4 Y140.034 E2.31462
G1 X144.652 Y140.345 E2.32902
G1 X144.228 Y140.493 E2.337
G1 X143.513 Y140.7 E2.35023
G1 X142.53 Y140.855 E2.36792
G1 X141.941 Y140.905 E2.37843
G1 X141.355 Y140.93 E2.38885
G1 X91.876 Y140.93 E3.26839
G1 X91.461 Y140.918 E3.27577
G1 X90.645 Y140.869 E3.2903
G1 X89.905 Y140.784 E3.30354
G1 X89.179 Y140.621 E3.31677
G1 X88.782 Y140.496 E3.32417
G1 X88.354 Y140.347 E3.33223
G1 X87.665 Y140.065 E3.34546
G1 X86.949 Y139.673 E3.35997
G1 X86.568 Y139.434 E3.36796
G1 X85.96 Y139.005 E3.38119
G1 X85.351 Y138.463 E3.39568
G1 X85.037 Y138.149 E3.40358
G1 X84.539 Y137.595 E3.41682
G1 X84.06 Y136.922 E3.4315
G1 X83.82 Y136.538 E3.43955
G1 X83.46 Y135.886 E3.45279
G1 X83.151 Y135.139 E3.46716
G1 X83.003 Y134.713 E3.47518
G1 X82.797 Y133.998 E3.48841
G1 X82.662 Y133.209 E3.50263
G1 X82.613 Y132.771 E3.51047
G1 X82.57 Y132.001 E3.52418
G1 X82.57 Y83.332 E4.38932
G1 X82.584 Y82.888 E4.39721
G1 X82.634 Y82.11 E4.41107
G1 X82.722 Y81.37 E4.42432
G1 X82.888 Y80.645 E4.43754
G1 X83.015 Y80.248 E4.44495
G1 X83.165 Y79.823 E4.45296
G1 X83.45 Y79.135 E4.4662
G1 X83.834 Y78.439 E4.48033
G1 X84.073 Y78.059 E4.48831
G1 X84.502 Y77.452 E4.50152
G1 X85.047 Y76.841 E4.51607
M204 S625
M205 X6 Y6
G0 F4285.7 X85.343 Y77.138
M204 S500
M205 X5 Y5
G1 F1200 X85.658 Y76.824 E4.52398
G1 X86.196 Y76.344 E4.5368
G1 X86.805 Y75.914 E4.55005
G1 X87.186 Y75.676 E4.55804
G1 X87.818 Y75.328 E4.57086
G1 X88.503 Y75.046 E4.58403
G1 X88.927 Y74.899 E4.59201
G1 X89.62 Y74.701 E4.60482
G1 X90.506 Y74.564 E4.62075
G1 X91.092 Y74.514 E4.63121
G1 X91.645 Y74.49 E4.64105
G1 X141.124 Y74.49 E5.52059
G1 X141.52 Y74.502 E5.52763
G1 X142.34 Y74.552 E5.54223
G1 X143.057 Y74.636 E5.55506
G1 X144.102 Y74.908 E5.57426
G1 X144.529 Y75.058 E5.5823
G1 X145.195 Y75.334 E5.59512
G1 X145.837 Y75.689 E5.60816
G1 X146.217 Y75.928 E5.61614
G1 X146.805 Y76.346 E5.62896
G1 X147.362 Y76.843 E5.64223
G1 X147.676 Y77.158 E5.65014
G1 X148.156 Y77.696 E5.66296
G1 X148.585 Y78.302 E5.67615
G1 X148.822 Y78.681 E5.6841
G1 X149.17 Y79.313 E5.69693
G1 X149.45 Y79.993 E5.71
G1 X149.599 Y80.421 E5.71805
G1 X149.798 Y81.114 E5.73087
G1 X149.921 Y81.837 E5.74391
G1 X149.97 Y82.275 E5.75174
G1 X150.01 Y82.999 E5.76463
G1 X150.01 Y131.668 E6.62977
G1 X149.997 Y132.08 E6.6371
G1 X149.948 Y132.852 E6.65085
G1 X149.862 Y133.569 E6.66368
G1 X149.598 Y134.585 E6.68234
G1 X149.449 Y135.012 E6.69038
G1 X149.173 Y135.679 E6.70322
G1 X148.821 Y136.32 E6.71621
G1 X148.582 Y136.702 E6.72422
G1 X148.166 Y137.291 E6.73704
G1 X147.666 Y137.852 E6.7504
G1 X147.352 Y138.166 E6.75829
G1 X146.815 Y138.647 E6.77111
G1 X146.208 Y139.078 E6.78434
G1 X145.827 Y139.317 E6.79234
G1 X145.196 Y139.666 E6.80516
G1 X144.513 Y139.948 E6.81829
G1 X144.089 Y140.096 E6.82627
G1 X143.396 Y140.296 E6.8391
G1 X142.495 Y140.437 E6.85531
G1 X141.906 Y140.487 E6.86581
G1 X141.355 Y140.51 E6.87562
G1 X91.876 Y140.51 E7.75515
G1 X91.486 Y140.498 E7.76209
G1 X90.67 Y140.449 E7.77662
G1 X89.953 Y140.366 E7.78945
G1 X88.92 Y140.099 E7.80842
G1 X88.492 Y139.95 E7.81647
G1 X87.825 Y139.676 E7.82929
G1 X87.173 Y139.317 E7.84252
G1 X86.792 Y139.078 E7.85052
G1 X86.203 Y138.661 E7.86335
G1 X85.648 Y138.166 E7.87657
G1 X85.334 Y137.852 E7.88446
G1 X84.853 Y137.315 E7.89727
G1 X84.417 Y136.699 E7.91069
G1 X84.177 Y136.315 E7.91874
G1 X83.829 Y135.683 E7.93156
G1 X83.548 Y135.001 E7.94468
G1 X83.4 Y134.575 E7.95269
G1 X83.201 Y133.882 E7.96551
G1 X83.079 Y133.163 E7.97847
G1 X83.03 Y132.725 E7.98631
G1 X82.99 Y132.001 E7.9992
G1 X82.99 Y83.332 E8.86434
G1 X83.003 Y82.914 E8.87177
G1 X83.053 Y82.136 E8.88563
G1 X83.139 Y81.42 E8.89845
G1 X83.411 Y80.387 E8.91744
G1 X83.561 Y79.962 E8.92545
G1 X83.839 Y79.296 E8.93828
G1 X84.189 Y78.663 E8.95113
G1 X84.428 Y78.283 E8.95911
G1 X84.846 Y77.695 E8.97194
G1 X85.343 Y77.138 E8.98521
M204 S625
M205 X6 Y6
G0 F4285.7 X85.64 Y77.436
M204 S500
M205 X5 Y5
G1 F1200 X85.955 Y77.122 E8.99311
G1 X86.476 Y76.658 E9.00552
G1 X87.028 Y76.27 E9.01751
G1 X87.409 Y76.032 E9.02549
G1 X88.02 Y75.697 E9.03788
G1 X88.64 Y75.443 E9.04979
G1 X89.064 Y75.296 E9.05777
G1 X89.735 Y75.106 E9.07017
G1 X90.541 Y74.982 E9.08466
G1 X91.127 Y74.932 E9.09512
G1 X91.645 Y74.91 E9.10433
G1 X141.124 Y74.91 E9.98387
G1 X141.495 Y74.921 E9.99047
G1 X142.315 Y74.971 E10.00507
G1 X143.007 Y75.054 E10.01746
G1 X143.962 Y75.304 E10.03501
G1 X144.389 Y75.454 E10.04305
G1 X145.033 Y75.723 E10.05546
G1 X145.613 Y76.045 E10.06725
G1 X145.993 Y76.284 E10.07523
G1 X146.562 Y76.689 E10.08765
G1 X147.064 Y77.14 E10.09964
G1 X147.378 Y77.455 E10.10755
G1 X147.842 Y77.976 E10.11995
G1 X148.229 Y78.525 E10.13189
G1 X148.466 Y78.904 E10.13984
G1 X148.801 Y79.516 E10.15224
G1 X149.053 Y80.131 E10.16405
G1 X149.202 Y80.559 E10.17211
G1 X149.394 Y81.23 E10.18451
G1 X149.503 Y81.884 E10.1963
G1 X149.552 Y82.322 E10.20414
G1 X149.59 Y82.999 E10.21619
G1 X149.59 Y131.668 E11.08133
G1 X149.578 Y132.054 E11.08819
G1 X149.529 Y132.826 E11.10194
G1 X149.445 Y133.518 E11.11433
G1 X149.201 Y134.446 E11.13139
G1 X149.052 Y134.873 E11.13943
G1 X148.785 Y135.518 E11.15184
G1 X148.465 Y136.097 E11.1636
G1 X148.226 Y136.479 E11.17161
G1 X147.822 Y137.048 E11.18401
G1 X147.369 Y137.555 E11.1961
G1 X147.055 Y137.869 E11.20399
G1 X146.534 Y138.334 E11.21641
G1 X145.985 Y138.722 E11.22836
G1 X145.604 Y138.961 E11.23635
G1 X144.993 Y139.297 E11.24875
G1 X144.375 Y139.552 E11.26063
G1 X143.951 Y139.7 E11.26861
G1 X143.28 Y139.892 E11.28102
G1 X142.459 Y140.018 E11.29579
G1 X141.87 Y140.068 E11.30629
G1 X141.355 Y140.09 E11.31546
G1 X91.876 Y140.09 E12.19499
G1 X91.511 Y140.079 E12.20148
G1 X90.695 Y140.03 E12.21602
G1 X90.002 Y139.948 E12.22842
G1 X89.058 Y139.702 E12.24576
G1 X88.63 Y139.553 E12.25382
G1 X87.985 Y139.287 E12.26622
G1 X87.396 Y138.961 E12.27819
G1 X87.015 Y138.722 E12.28618
G1 X86.446 Y138.318 E12.29859
G1 X85.945 Y137.869 E12.31054
G1 X85.631 Y137.555 E12.31844
G1 X85.166 Y137.034 E12.33085
G1 X84.773 Y136.477 E12.34297
G1 X84.533 Y136.093 E12.35102
G1 X84.197 Y135.481 E12.36343
G1 X83.944 Y134.864 E12.37528
G1 X83.796 Y134.438 E12.3833
G1 X83.605 Y133.766 E12.39572
G1 X83.497 Y133.116 E12.40743
G1 X83.448 Y132.678 E12.41527
G1 X83.41 Y132.001 E12.42732
G1 X83.41 Y83.332 E13.29246
G1 X83.423 Y82.941 E13.29941
G1 X83.473 Y82.163 E13.31327
G1 X83.557 Y81.471 E13.32566
G1 X83.807 Y80.527 E13.34302
G1 X83.957 Y80.102 E13.35103
G1 X84.227 Y79.459 E13.36343
G1 X84.545 Y78.887 E13.37506
G1 X84.784 Y78.507 E13.38304
G1 X85.189 Y77.938 E13.39546
G1 X85.64 Y77.436 E13.40745
M204 S625
M205 X6 Y6
G0 F4285.7 X85.936 Y77.733
M204 S500
M205 X5 Y5
G1 F1200 X86.251 Y77.419 E13.41536
G1 X86.755 Y76.973 E13.42732
G1 X87.25 Y76.626 E13.43807
G1 X87.631 Y76.388 E13.44605
G1 X88.222 Y76.066 E13.45802
G1 X88.778 Y75.84 E13.46869
G1 X89.202 Y75.693 E13.47666
G1 X89.85 Y75.51 E13.48863
G1 X90.577 Y75.401 E13.5017
G1 X91.163 Y75.351 E13.51216
G1 X91.645 Y75.33 E13.52073
G1 X141.124 Y75.33 E14.40027
G1 X141.469 Y75.341 E14.40641
G1 X142.289 Y75.391 E14.42101
G1 X142.957 Y75.471 E14.43297
G1 X143.823 Y75.7 E14.44889
G1 X144.25 Y75.85 E14.45694
G1 X144.871 Y76.111 E14.46891
G1 X145.39 Y76.4 E14.47947
G1 X145.77 Y76.639 E14.48745
G1 X146.317 Y77.031 E14.49941
G1 X146.767 Y77.436 E14.51017
G1 X147.081 Y77.751 E14.51808
G1 X147.527 Y78.255 E14.53004
G1 X147.872 Y78.748 E14.54074
G1 X148.109 Y79.127 E14.54869
G1 X148.432 Y79.718 E14.56066
G1 X148.657 Y80.269 E14.57124
G1 X148.806 Y80.697 E14.57929
G1 X148.989 Y81.345 E14.59126
G1 X149.086 Y81.931 E14.60182
G1 X149.135 Y82.369 E14.60966
G1 X149.17 Y82.999 E14.62087
G1 X149.17 Y131.668 E15.48601
G1 X149.159 Y132.027 E15.4924
G1 X149.11 Y132.799 E15.50615
G1 X149.027 Y133.467 E15.51811
G1 X148.804 Y134.308 E15.53358
G1 X148.655 Y134.735 E15.54162
G1 X148.396 Y135.356 E15.55358
G1 X148.109 Y135.874 E15.5641
G1 X147.87 Y136.256 E15.57211
G1 X147.479 Y136.805 E15.5841
G1 X147.072 Y137.258 E15.59492
G1 X146.758 Y137.572 E15.60281
G1 X146.255 Y138.019 E15.61478
G1 X145.762 Y138.366 E15.62549
G1 X145.381 Y138.605 E15.63349
G1 X144.791 Y138.928 E15.64544
G1 X144.237 Y139.155 E15.65609
G1 X143.813 Y139.303 E15.66407
G1 X143.165 Y139.487 E15.67604
G1 X142.424 Y139.6 E15.68937
G1 X141.835 Y139.65 E15.69988
G1 X141.355 Y139.67 E15.70842
G1 X91.876 Y139.67 E16.58795
G1 X91.536 Y139.66 E16.594
G1 X90.72 Y139.611 E16.60853
G1 X90.052 Y139.531 E16.62049
G1 X89.196 Y139.306 E16.63622
G1 X88.768 Y139.157 E16.64428
G1 X88.146 Y138.898 E16.65626
G1 X87.619 Y138.605 E16.66697
G1 X87.238 Y138.366 E16.67497
G1 X86.69 Y137.975 E16.68694
G1 X86.242 Y137.572 E16.69765
G1 X85.928 Y137.258 E16.70554
G1 X85.481 Y136.755 E16.7175
G1 X85.129 Y136.254 E16.72839
G1 X84.889 Y135.87 E16.73644
G1 X84.567 Y135.279 E16.7484
G1 X84.341 Y134.726 E16.75902
G1 X84.193 Y134.3 E16.76704
G1 X84.01 Y133.652 E16.77901
G1 X83.914 Y133.069 E16.78951
G1 X83.865 Y132.631 E16.79734
G1 X83.83 Y132.001 E16.80856
G1 X83.83 Y83.332 E17.6737
G1 X83.842 Y82.968 E17.68017
G1 X83.892 Y82.19 E17.69403
G1 X83.975 Y81.522 E17.706
G1 X84.203 Y80.667 E17.72173
G1 X84.353 Y80.242 E17.72974
G1 X84.615 Y79.622 E17.7417
G1 X84.9 Y79.11 E17.75212
G1 X85.139 Y78.73 E17.7601
G1 X85.531 Y78.183 E17.77206
G1 X85.936 Y77.733 E17.78282
M204 S625
M205 X6 Y6
G0 F4285.7 X86.233 Y78.031
M204 S500
M205 X5 Y5
G1 F1200 X86.548 Y77.717 E17.79073
G1 X87.034 Y77.289 E17.80224
G1 X87.473 Y76.982 E17.81176
G1 X87.854 Y76.744 E17.81975
G1 X88.423 Y76.436 E17.83125
G1 X88.915 Y76.237 E17.84068
G1 X89.339 Y76.09 E17.84866
G1 X89.963 Y75.916 E17.86018
G1 X90.613 Y75.819 E17.87186
G1 X91.199 Y75.769 E17.88231
G1 X91.645 Y75.75 E17.89025
G1 X141.124 Y75.75 E18.76979
G1 X141.444 Y75.76 E18.77548
G1 X142.264 Y75.81 E18.79008
G1 X142.906 Y75.889 E18.80158
G1 X143.684 Y76.097 E18.81589
G1 X144.111 Y76.247 E18.82394
G1 X144.708 Y76.499 E18.83546
G1 X145.166 Y76.756 E18.84479
G1 X145.546 Y76.995 E18.85277
G1 X146.072 Y77.373 E18.86429
G1 X146.469 Y77.733 E18.87381
G1 X146.783 Y78.048 E18.88172
G1 X147.211 Y78.534 E18.89323
G1 X147.516 Y78.97 E18.90269
G1 X147.753 Y79.349 E18.91064
G1 X148.062 Y79.919 E18.92216
G1 X148.26 Y80.407 E18.93152
G1 X148.409 Y80.835 E18.93958
G1 X148.584 Y81.459 E18.9511
G1 X148.668 Y81.977 E18.96043
G1 X148.717 Y82.415 E18.96826
G1 X148.75 Y82.999 E18.97866
G1 X148.75 Y131.668 E19.8438
G1 X148.739 Y132.001 E19.84972
G1 X148.69 Y132.773 E19.86347
G1 X148.61 Y133.415 E19.87497
G1 X148.408 Y134.17 E19.88887
G1 X148.259 Y134.597 E19.8969
G1 X148.008 Y135.194 E19.90842
G1 X147.753 Y135.652 E19.91773
G1 X147.514 Y136.034 E19.92574
G1 X147.137 Y136.56 E19.93725
G1 X146.775 Y136.961 E19.94685
G1 X146.461 Y137.275 E19.95475
G1 X145.976 Y137.704 E19.96626
G1 X145.539 Y138.01 E19.97574
G1 X145.158 Y138.249 E19.98373
G1 X144.589 Y138.559 E19.99525
G1 X144.098 Y138.759 E20.00468
G1 X143.674 Y138.907 E20.01266
G1 X143.051 Y139.082 E20.02416
G1 X142.388 Y139.181 E20.03608
G1 X141.799 Y139.231 E20.04659
G1 X141.355 Y139.25 E20.05449
G1 X91.876 Y139.25 E20.93402
G1 X91.561 Y139.241 E20.93962
G1 X90.745 Y139.192 E20.95416
G1 X90.102 Y139.113 E20.96567
G1 X89.334 Y138.909 E20.9798
G1 X88.906 Y138.76 E20.98785
G1 X88.308 Y138.51 E20.99937
G1 X87.842 Y138.249 E21.00887
G1 X87.461 Y138.01 E21.01686
G1 X86.935 Y137.633 E21.02837
G1 X86.539 Y137.275 E21.03786
G1 X86.225 Y136.961 E21.04575
G1 X85.796 Y136.476 E21.05726
G1 X85.485 Y136.031 E21.06691
G1 X85.245 Y135.647 E21.07496
G1 X84.936 Y135.078 E21.08647
G1 X84.738 Y134.588 E21.09587
G1 X84.59 Y134.162 E21.10388
G1 X84.415 Y133.538 E21.1154
G1 X84.332 Y133.023 E21.12467
G1 X84.283 Y132.585 E21.13251
G1 X84.25 Y132.001 E21.14291
G1 X84.25 Y83.332 E22.00805
G1 X84.261 Y82.995 E22.01404
G1 X84.311 Y82.217 E22.0279
G1 X84.392 Y81.575 E22.0394
G1 X84.599 Y80.807 E22.05354
G1 X84.749 Y80.382 E22.06155
G1 X85.002 Y79.785 E22.07308
G1 X85.256 Y79.334 E22.08228
G1 X85.495 Y78.954 E22.09026
G1 X85.873 Y78.428 E22.10177
G1 X86.233 Y78.031 E22.1113
M204 S625
M205 X6 Y6
G0 F4285.7 X86.529 Y78.328
M204 S500
M205 X5 Y5
G1 F1200 X86.844 Y78.014 E22.1192
G1 X87.311 Y77.605 E22.13024
G1 X87.695 Y77.339 E22.13854
G1 X88.076 Y77.101 E22.14653
G1 X88.623 Y76.806 E22.15758
G1 X89.053 Y76.633 E22.16582
G1 X89.477 Y76.486 E22.17379
G1 X90.076 Y76.321 E22.18484
G1 X90.648 Y76.237 E22.19511
G1 X91.234 Y76.187 E22.20557
G1 X91.645 Y76.17 E22.21288
G1 X141.124 Y76.17 E23.09242
G1 X141.418 Y76.179 E23.09765
G1 X142.238 Y76.229 E23.11225
G1 X142.854 Y76.307 E23.12329
G1 X143.545 Y76.493 E23.13601
G1 X143.972 Y76.643 E23.14405
G1 X144.544 Y76.886 E23.1551
G1 X144.942 Y77.111 E23.16323
G1 X145.322 Y77.35 E23.17121
G1 X145.826 Y77.714 E23.18226
G1 X146.172 Y78.029 E23.19058
G1 X146.486 Y78.344 E23.19848
G1 X146.895 Y78.811 E23.20952
G1 X147.16 Y79.193 E23.21778
G1 X147.397 Y79.572 E23.22573
G1 X147.692 Y80.119 E23.23678
G1 X147.863 Y80.545 E23.24494
G1 X148.012 Y80.973 E23.25299
G1 X148.179 Y81.572 E23.26404
G1 X148.251 Y82.024 E23.27218
G1 X148.3 Y82.462 E23.28002
G1 X148.33 Y82.999 E23.28958
G1 X148.33 Y131.668 E24.15471
G1 X148.32 Y131.974 E24.16016
G1 X148.271 Y132.746 E24.17391
G1 X148.192 Y133.362 E24.18495
G1 X148.011 Y134.031 E24.19727
G1 X147.862 Y134.458 E24.20531
G1 X147.62 Y135.031 E24.21636
G1 X147.397 Y135.429 E24.22447
G1 X147.158 Y135.811 E24.23248
G1 X146.795 Y136.315 E24.24352
G1 X146.478 Y136.664 E24.2519
G1 X146.164 Y136.978 E24.2598
G1 X145.698 Y137.388 E24.27083
G1 X145.316 Y137.655 E24.27912
G1 X144.935 Y137.894 E24.28711
G1 X144.388 Y138.189 E24.29816
G1 X143.96 Y138.362 E24.30636
G1 X143.536 Y138.51 E24.31435
G1 X142.937 Y138.677 E24.3254
G1 X142.353 Y138.763 E24.33589
G1 X141.764 Y138.813 E24.3464
G1 X141.355 Y138.83 E24.35368
G1 X91.876 Y138.83 E25.23322
G1 X91.586 Y138.821 E25.23837
G1 X90.77 Y138.772 E25.25291
