;START_OF_HEADER
;HEADER_VERSION:0.1
;FLAVOR:Griffin
;GENERATOR.NAME:Cura_SteamEngine
;GENERATOR.VERSION:4.3.0
;GENERATOR.BUILD_DATE:2019-09-24
;TARGET_MACHINE.NAME:Ultimaker 3
;EXTRUDER_TRAIN.0.INITIAL_TEMPERATURE:210
;EXTRUDER_TRAIN.0.MATERIAL.VOLUME_USED:7847
;EXTRUDER_TRAIN.0.MATERIAL.GUID:506c9f0d-e3aa-4bd4-b2d2-23e2425b1aa9
;EXTRUDER_TRAIN.0.NOZZLE.DIAMETER:0.4
;EXTRUDER_TRAIN.0.NOZZLE.NAME:AA 0.4
;BUILD_PLATE.TYPE:glass
;BUILD_PLATE.INITIAL_TEMPERATURE:60
;PRINT.TIME:3231
;PRINT.GROUPS:1
;PRINT.SIZE.MIN.X:9
;PRINT.SIZE.MIN.Y:6
;PRINT.SIZE.MIN.Z:0.27
;PRINT.SIZE.MAX.X:148.43
;PRINT.SIZE.MAX.Y:127.18
;PRINT.SIZE.MAX.Z:19.87
;END_OF_HEADER
;Generated with Cura_SteamEngine 4.3.0
T0
M82 ;absolute extrusion mode

G92 E0
M109 S210
G0 F15000 X9 Y6 Z2
G280
G1 F1500 E-6.5
;LAYER_COUNT:99
;LAYER:0
M107
M204 S625
M205 X6 Y6
G1 F600 Z2.27
G0 F4285.7 X86.723 Y89.85 Z2.27
M204 S500
M205 X5 Y5
;TYPE:SKIRT
G1 F600 Z0.27
G1 F1500 E0
G1 F1200 X87.277 Y89.352 E0.01324
G1 X87.881 Y88.917 E0.02647
G1 X88.528 Y88.55 E0.0397
G1 X89.21 Y88.253 E0.05292
G1 X89.921 Y88.032 E0.06615
G1 X90.651 Y87.888 E0.07938
G1 X91.623 Y87.82 E0.0967
G1 X141.377 Y87.82 E0.98113
G1 X142.12 Y87.86 E0.99435
G1 X142.855 Y87.979 E1.00759
G1 X143.573 Y88.177 E1.02083
G1 X144.265 Y88.45 E1.03405
G1 X144.924 Y88.796 E1.04728
G1 X145.542 Y89.211 E1.06052
G1 X146.112 Y89.69 E1.07375
G1 X146.627 Y90.227 E1.08698
G1 X147.082 Y90.816 E1.10021
G1 X147.471 Y91.45 E1.11343
G1 X147.79 Y92.123 E1.12667
G1 X148.035 Y92.826 E1.1399
G1 X148.203 Y93.551 E1.15313
G1 X148.292 Y94.29 E1.16636
G1 X148.307 Y94.716 E1.17394
G1 X148.43 Y120.093 E1.62505
G1 X148.394 Y120.837 E1.63829
G1 X148.278 Y121.572 E1.65151
G1 X148.084 Y122.291 E1.66475
G1 X147.814 Y122.984 E1.67797
G1 X147.471 Y123.645 E1.69121
G1 X147.059 Y124.265 E1.70444
G1 X146.4 Y125.027 E1.72235
G1 X146.277 Y125.15 E1.72544
G1 X145.723 Y125.648 E1.73868
G1 X145.119 Y126.083 E1.75192
G1 X144.472 Y126.45 E1.76514
G1 X143.79 Y126.747 E1.77836
G1 X143.079 Y126.968 E1.7916
G1 X142.349 Y127.112 E1.80482
G1 X141.377 Y127.18 E1.82214
G1 X91.623 Y127.18 E2.70657
G1 X90.88 Y127.14 E2.7198
G1 X90.145 Y127.021 E2.73303
G1 X89.427 Y126.823 E2.74627
G1 X88.735 Y126.55 E2.75949
G1 X88.076 Y126.204 E2.77273
G1 X87.458 Y125.789 E2.78596
G1 X86.723 Y125.15 E2.80327
G1 X86.6 Y125.027 E2.80636
G1 X86.102 Y124.473 E2.8196
G1 X85.667 Y123.869 E2.83284
G1 X85.3 Y123.222 E2.84606
G1 X85.003 Y122.54 E2.85928
G1 X84.782 Y121.829 E2.87252
G1 X84.638 Y121.099 E2.88574
G1 X84.57 Y120.127 E2.90306
G1 X84.57 Y94.873 E3.35198
G1 X84.61 Y94.13 E3.3652
G1 X84.729 Y93.395 E3.37844
G1 X84.927 Y92.677 E3.39168
G1 X85.2 Y91.985 E3.4049
G1 X85.546 Y91.326 E3.41813
G1 X85.961 Y90.708 E3.43137
G1 X86.6 Y89.973 E3.44868
G1 X86.723 Y89.85 E3.45177
M204 S625
M205 X6 Y6
G0 F4285.7 X87.02 Y90.147
M204 S500
M205 X5 Y5
G1 F1200 X87.557 Y89.666 E3.46459
G1 X88.145 Y89.247 E3.47742
G1 X88.775 Y88.896 E3.49024
G1 X89.44 Y88.617 E3.50306
G1 X90.132 Y88.413 E3.51588
G1 X90.842 Y88.287 E3.5287
G1 X91.623 Y88.24 E3.54261
G1 X141.377 Y88.24 E4.42704
G1 X142.097 Y88.28 E4.43986
G1 X142.809 Y88.399 E4.45269
G1 X143.503 Y88.597 E4.46552
G1 X144.17 Y88.87 E4.47833
G1 X144.804 Y89.215 E4.49116
G1 X145.395 Y89.628 E4.50397
G1 X145.937 Y90.104 E4.5168
G1 X146.423 Y90.637 E4.52962
G1 X146.847 Y91.221 E4.54245
G1 X147.204 Y91.848 E4.55527
G1 X147.49 Y92.51 E4.56809
G1 X147.7 Y93.2 E4.58091
G1 X147.832 Y93.909 E4.59373
G1 X147.887 Y94.718 E4.60815
G1 X148.01 Y120.095 E5.05925
G1 X147.973 Y120.816 E5.07209
G1 X147.857 Y121.528 E5.08491
G1 X147.663 Y122.223 E5.09774
G1 X147.394 Y122.892 E5.11055
G1 X147.052 Y123.527 E5.12337
G1 X146.641 Y124.12 E5.1362
G1 X146.103 Y124.73 E5.15066
G1 X145.98 Y124.853 E5.15375
G1 X145.443 Y125.334 E5.16657
G1 X144.855 Y125.753 E5.1794
G1 X144.225 Y126.104 E5.19222
G1 X143.56 Y126.383 E5.20504
G1 X142.868 Y126.587 E5.21786
G1 X142.158 Y126.713 E5.23068
G1 X141.377 Y126.76 E5.24459
G1 X91.623 Y126.76 E6.12902
G1 X90.903 Y126.72 E6.14183
G1 X90.191 Y126.601 E6.15467
G1 X89.497 Y126.403 E6.16749
G1 X88.83 Y126.13 E6.18031
G1 X88.196 Y125.785 E6.19314
G1 X87.605 Y125.372 E6.20595
G1 X87.02 Y124.853 E6.21985
G1 X86.897 Y124.73 E6.22295
G1 X86.416 Y124.193 E6.23576
G1 X85.997 Y123.605 E6.2486
G1 X85.646 Y122.975 E6.26142
G1 X85.367 Y122.31 E6.27424
G1 X85.163 Y121.618 E6.28706
G1 X85.037 Y120.908 E6.29988
G1 X84.99 Y120.127 E6.31379
G1 X84.99 Y94.873 E6.7627
G1 X85.03 Y94.153 E6.77552
G1 X85.149 Y93.441 E6.78835
G1 X85.347 Y92.747 E6.80118
G1 X85.62 Y92.08 E6.81399
G1 X85.965 Y91.446 E6.82682
G1 X86.378 Y90.855 E6.83964
G1 X86.897 Y90.27 E6.85354
G1 X87.02 Y90.147 E6.85663
M204 S625
M205 X6 Y6
G0 F4285.7 X87.317 Y90.444
M204 S500
M205 X5 Y5
G1 F1200 X87.838 Y89.979 E6.86905
G1 X88.408 Y89.578 E6.88143
G1 X89.021 Y89.244 E6.89384
G1 X89.668 Y88.982 E6.90625
G1 X90.34 Y88.797 E6.91864
G1 X91.029 Y88.689 E6.93104
G1 X91.623 Y88.66 E6.94161
G1 X141.377 Y88.66 E7.82604
G1 X142.074 Y88.7 E7.83845
G1 X142.761 Y88.819 E7.85084
G1 X143.43 Y89.017 E7.86324
G1 X144.073 Y89.289 E7.87565
G1 X144.679 Y89.633 E7.88804
G1 X145.243 Y90.045 E7.90045
G1 X145.756 Y90.518 E7.91286
G1 X146.211 Y91.046 E7.92525
G1 X146.603 Y91.623 E7.93765
G1 X146.926 Y92.242 E7.95006
G1 X147.177 Y92.893 E7.96246
G1 X147.351 Y93.569 E7.97487
G1 X147.447 Y94.26 E7.98727
G1 X147.467 Y94.72 E7.99546
G1 X147.59 Y120.097 E8.44656
G1 X147.553 Y120.794 E8.45897
G1 X147.437 Y121.482 E8.47137
G1 X147.243 Y122.152 E8.48377
G1 X146.974 Y122.796 E8.49618
G1 X146.633 Y123.405 E8.50858
G1 X146.224 Y123.97 E8.52098
G1 X145.806 Y124.433 E8.53207
G1 X145.683 Y124.556 E8.53516
G1 X145.162 Y125.021 E8.54758
G1 X144.592 Y125.422 E8.55997
G1 X143.979 Y125.756 E8.57237
G1 X143.332 Y126.018 E8.58478
G1 X142.66 Y126.203 E8.59717
G1 X141.971 Y126.311 E8.60957
G1 X141.377 Y126.34 E8.62014
G1 X91.623 Y126.34 E9.50457
G1 X90.926 Y126.3 E9.51698
G1 X90.239 Y126.181 E9.52937
G1 X89.57 Y125.983 E9.54177
G1 X88.927 Y125.711 E9.55418
G1 X88.321 Y125.367 E9.56657
G1 X87.757 Y124.955 E9.57899
G1 X87.317 Y124.556 E9.58955
G1 X87.194 Y124.433 E9.59264
G1 X86.729 Y123.912 E9.60505
G1 X86.328 Y123.342 E9.61744
G1 X85.994 Y122.729 E9.62985
G1 X85.732 Y122.082 E9.64226
G1 X85.547 Y121.41 E9.65465
G1 X85.439 Y120.721 E9.66704
G1 X85.41 Y120.127 E9.67762
G1 X85.41 Y94.873 E10.12653
G1 X85.45 Y94.176 E10.13894
G1 X85.569 Y93.489 E10.15133
G1 X85.767 Y92.82 E10.16374
G1 X86.039 Y92.177 E10.17615
G1 X86.383 Y91.571 E10.18853
G1 X86.795 Y91.007 E10.20095
G1 X87.194 Y90.567 E10.21151
G1 X87.317 Y90.444 E10.2146
M204 S625
M205 X6 Y6
G0 F4285.7 X87.614 Y90.741
M204 S500
M205 X5 Y5
G1 F1200 X88.117 Y90.294 E10.22656
G1 X88.67 Y89.91 E10.23853
G1 X89.265 Y89.594 E10.2505
G1 X89.892 Y89.351 E10.26246
G1 X90.544 Y89.184 E10.27442
G1 X91.212 Y89.095 E10.2864
G1 X91.623 Y89.08 E10.29371
G1 X141.377 Y89.08 E11.17814
G1 X142.049 Y89.12 E11.1901
G1 X142.712 Y89.239 E11.20208
G1 X143.355 Y89.436 E11.21403
G1 X143.971 Y89.708 E11.226
G1 X144.55 Y90.051 E11.23797
G1 X145.085 Y90.46 E11.24994
G1 X145.567 Y90.93 E11.2619
G1 X145.99 Y91.454 E11.27387
G1 X146.349 Y92.024 E11.28585
G1 X146.637 Y92.632 E11.29781
G1 X146.851 Y93.27 E11.30977
G1 X146.987 Y93.93 E11.32175
G1 X147.047 Y94.723 E11.33589
G1 X147.17 Y120.1 E11.78699
G1 X147.133 Y120.772 E11.79896
G1 X147.017 Y121.435 E11.81092
G1 X146.823 Y122.08 E11.82289
G1 X146.554 Y122.697 E11.83486
G1 X146.214 Y123.278 E11.84682
G1 X145.807 Y123.814 E11.85879
G1 X145.509 Y124.136 E11.86659
G1 X145.386 Y124.259 E11.86968
G1 X144.883 Y124.706 E11.88164
G1 X144.33 Y125.09 E11.89361
G1 X143.735 Y125.406 E11.90558
G1 X143.108 Y125.649 E11.91754
G1 X142.456 Y125.816 E11.9295
G1 X141.788 Y125.905 E11.94148
G1 X141.377 Y125.92 E11.94879
G1 X91.623 Y125.92 E12.83322
G1 X90.951 Y125.88 E12.84518
G1 X90.288 Y125.761 E12.85716
G1 X89.645 Y125.564 E12.86911
G1 X89.029 Y125.292 E12.88108
G1 X88.45 Y124.949 E12.89304
G1 X87.915 Y124.54 E12.90502
G1 X87.614 Y124.259 E12.91233
G1 X87.491 Y124.136 E12.91543
G1 X87.044 Y123.633 E12.92739
G1 X86.66 Y123.08 E12.93936
G1 X86.344 Y122.485 E12.95133
G1 X86.101 Y121.858 E12.96329
G1 X85.934 Y121.206 E12.97525
G1 X85.845 Y120.538 E12.98723
G1 X85.83 Y120.127 E12.99454
G1 X85.83 Y94.873 E13.44345
G1 X85.87 Y94.201 E13.45542
G1 X85.989 Y93.538 E13.46739
G1 X86.186 Y92.895 E13.47935
G1 X86.458 Y92.279 E13.49132
G1 X86.801 Y91.7 E13.50328
G1 X87.21 Y91.165 E13.51525
G1 X87.491 Y90.864 E13.52257
G1 X87.614 Y90.741 E13.52566
M204 S625
M205 X6 Y6
G0 F4285.7 X87.911 Y91.038
M204 S500
M205 X5 Y5
G1 F1200 X88.396 Y90.609 E13.53717
G1 X88.931 Y90.243 E13.5487
G1 X89.506 Y89.946 E13.5602
G1 X90.114 Y89.722 E13.57172
G1 X90.745 Y89.574 E13.58324
G1 X91.623 Y89.5 E13.5989
G1 X141.377 Y89.5 E14.48333
G1 X142.024 Y89.54 E14.49485
G1 X142.66 Y89.659 E14.50635
G1 X143.277 Y89.856 E14.51787
G1 X143.866 Y90.127 E14.52939
G1 X144.416 Y90.469 E14.5409
G1 X144.92 Y90.876 E14.55242
G1 X145.37 Y91.342 E14.56394
G1 X145.759 Y91.859 E14.57544
G1 X146.082 Y92.421 E14.58696
G1 X146.333 Y93.018 E14.59847
G1 X146.509 Y93.642 E14.61
G1 X146.606 Y94.282 E14.6215
G1 X146.627 Y94.725 E14.62939
G1 X146.75 Y120.102 E15.08049
G1 X146.713 Y120.748 E15.09199
G1 X146.597 Y121.386 E15.10352
G1 X146.403 Y122.004 E15.11504
G1 X146.135 Y122.593 E15.12654
G1 X145.796 Y123.145 E15.13805
G1 X145.212 Y123.839 E15.15418
G1 X145.089 Y123.962 E15.15727
G1 X144.604 Y124.391 E15.16878
G1 X144.069 Y124.757 E15.1803
G1 X143.494 Y125.054 E15.19181
G1 X142.886 Y125.278 E15.20332
G1 X142.255 Y125.426 E15.21484
G1 X141.377 Y125.5 E15.23051
G1 X91.623 Y125.5 E16.11493
G1 X90.976 Y125.46 E16.12646
G1 X90.34 Y125.341 E16.13796
G1 X89.723 Y125.144 E16.14947
G1 X89.134 Y124.873 E16.161
G1 X88.584 Y124.531 E16.17251
G1 X87.911 Y123.962 E16.18818
G1 X87.788 Y123.839 E16.19127
G1 X87.359 Y123.354 E16.20278
G1 X86.993 Y122.819 E16.2143
G1 X86.696 Y122.244 E16.2258
G1 X86.472 Y121.636 E16.23732
G1 X86.324 Y121.005 E16.24884
G1 X86.25 Y120.127 E16.26451
G1 X86.25 Y94.873 E16.71342
G1 X86.29 Y94.226 E16.72494
G1 X86.409 Y93.59 E16.73645
G1 X86.606 Y92.973 E16.74796
G1 X86.877 Y92.384 E16.75948
G1 X87.219 Y91.834 E16.771
G1 X87.788 Y91.161 E16.78666
G1 X87.911 Y91.038 E16.78975
M204 S625
M205 X6 Y6
G0 F4285.7 X88.208 Y91.335
M204 S500
M205 X5 Y5
G1 F1200 X88.674 Y90.925 E16.80079
G1 X89.19 Y90.578 E16.81184
G1 X89.746 Y90.3 E16.82289
G1 X90.332 Y90.096 E16.83392
G1 X90.94 Y89.968 E16.84497
G1 X91.623 Y89.92 E16.85714
G1 X141.377 Y89.92 E17.74156
G1 X141.997 Y89.96 E17.75261
G1 X142.607 Y90.079 E17.76365
G1 X143.196 Y90.276 E17.77469
G1 X143.755 Y90.546 E17.78573
G1 X144.275 Y90.886 E17.79677
G1 X144.747 Y91.29 E17.80782
G1 X145.164 Y91.752 E17.81888
G1 X145.517 Y92.262 E17.82991
G1 X145.802 Y92.814 E17.84095
G1 X146.014 Y93.399 E17.85201
G1 X146.149 Y94.005 E17.86305
G1 X146.207 Y94.727 E17.87592
G1 X146.33 Y120.104 E18.32703
G1 X146.293 Y120.724 E18.33807
G1 X146.177 Y121.334 E18.34911
G1 X145.983 Y121.924 E18.36015
G1 X145.715 Y122.485 E18.3712
G1 X145.378 Y123.007 E18.38224
G1 X144.915 Y123.542 E18.39482
G1 X144.792 Y123.665 E18.39791
G1 X144.326 Y124.075 E18.40895
G1 X143.81 Y124.422 E18.42
G1 X143.254 Y124.7 E18.43105
G1 X142.668 Y124.904 E18.44208
G1 X142.06 Y125.032 E18.45312
G1 X141.377 Y125.08 E18.4653
G1 X91.623 Y125.08 E19.34972
G1 X91.003 Y125.04 E19.36077
G1 X90.393 Y124.921 E19.37181
G1 X89.804 Y124.724 E19.38285
G1 X89.245 Y124.454 E19.39389
G1 X88.725 Y124.114 E19.40493
G1 X88.208 Y123.665 E19.4171
G1 X88.085 Y123.542 E19.4202
G1 X87.675 Y123.076 E19.43123
G1 X87.328 Y122.56 E19.44228
G1 X87.05 Y122.004 E19.45333
G1 X86.846 Y121.418 E19.46436
G1 X86.718 Y120.81 E19.47541
G1 X86.67 Y120.127 E19.48758
G1 X86.67 Y94.873 E19.93649
G1 X86.71 Y94.253 E19.94754
G1 X86.829 Y93.643 E19.95859
G1 X87.026 Y93.054 E19.96963
G1 X87.296 Y92.495 E19.98066
G1 X87.636 Y91.975 E19.9917
G1 X88.085 Y91.458 E20.00388
G1 X88.208 Y91.335 E20.00697
M204 S625
M205 X6 Y6
G0 F4285.7 X88.505 Y91.632
M204 S500
M205 X5 Y5
G1 F1200 X88.952 Y91.241 E20.01753
G1 X89.447 Y90.914 E20.02807
G1 X89.982 Y90.657 E20.03862
G1 X90.547 Y90.473 E20.04918
G1 X91.131 Y90.368 E20.05973
G1 X91.623 Y90.34 E20.06849
G1 X141.377 Y90.34 E20.95292
G1 X141.969 Y90.38 E20.96347
G1 X142.551 Y90.499 E20.97402
G1 X143.111 Y90.695 E20.98457
G1 X143.64 Y90.965 E20.99513
G1 X144.128 Y91.303 E21.00568
G1 X144.566 Y91.704 E21.01624
G1 X144.946 Y92.16 E21.02679
G1 X145.262 Y92.663 E21.03735
G1 X145.507 Y93.203 E21.04789
G1 X145.677 Y93.772 E21.05845
G1 X145.77 Y94.358 E21.06899
G1 X145.787 Y94.729 E21.07559
G1 X145.91 Y120.106 E21.5267
G1 X145.873 Y120.698 E21.53724
G1 X145.757 Y121.28 E21.54779
G1 X145.563 Y121.841 E21.55835
G1 X145.296 Y122.372 E21.56891
G1 X144.96 Y122.861 E21.57946
G1 X144.618 Y123.245 E21.5886
G1 X144.495 Y123.368 E21.59169
G1 X144.048 Y123.759 E21.60225
G1 X143.553 Y124.086 E21.61279
G1 X143.018 Y124.343 E21.62334
G1 X142.453 Y124.527 E21.63391
G1 X141.869 Y124.632 E21.64445
G1 X141.377 Y124.66 E21.65321
G1 X91.623 Y124.66 E22.53764
G1 X91.031 Y124.62 E22.54819
G1 X90.449 Y124.501 E22.55875
G1 X89.889 Y124.305 E22.56929
G1 X89.36 Y124.035 E22.57985
G1 X88.872 Y123.697 E22.5904
G1 X88.505 Y123.368 E22.59916
G1 X88.382 Y123.245 E22.60226
G1 X87.991 Y122.798 E22.61281
G1 X87.664 Y122.303 E22.62336
G1 X87.407 Y121.768 E22.63391
G1 X87.223 Y121.203 E22.64447
G1 X87.118 Y120.619 E22.65502
G1 X87.09 Y120.127 E22.66378
G1 X87.09 Y94.873 E23.11269
G1 X87.13 Y94.281 E23.12324
G1 X87.249 Y93.699 E23.1338
G1 X87.445 Y93.139 E23.14435
G1 X87.715 Y92.61 E23.1549
G1 X88.053 Y92.122 E23.16546
G1 X88.382 Y91.755 E23.17422
G1 X88.505 Y91.632 E23.17731
M204 S625
M205 X6 Y6
G0 F4285.7 X88.802 Y91.929
M204 S500
M205 X5 Y5
G1 F1200 X89.228 Y91.559 E23.18734
G1 X89.703 Y91.253 E23.19738
G1 X90.216 Y91.016 E23.20743
G1 X90.757 Y90.855 E23.21746
G1 X91.315 Y90.772 E23.22749
G1 X91.623 Y90.76 E23.23297
G1 X141.377 Y90.76 E24.1174
G1 X141.94 Y90.8 E24.12743
G1 X142.492 Y90.919 E24.13747
G1 X143.022 Y91.115 E24.14751
G1 X143.518 Y91.383 E24.15753
G1 X143.972 Y91.719 E24.16757
G1 X144.374 Y92.116 E24.17762
G1 X144.716 Y92.565 E24.18765
G1 X144.991 Y93.059 E24.1977
G1 X145.193 Y93.586 E24.20773
G1 X145.319 Y94.136 E24.21776
G1 X145.367 Y94.731 E24.22837
G1 X145.49 Y120.108 E24.67948
G1 X145.453 Y120.671 E24.68951
G1 X145.336 Y121.224 E24.69956
G1 X145.143 Y121.754 E24.70958
G1 X144.877 Y122.252 E24.71962
G1 X144.543 Y122.707 E24.72965
G1 X144.321 Y122.948 E24.73548
G1 X144.198 Y123.071 E24.73857
G1 X143.772 Y123.441 E24.7486
G1 X143.297 Y123.747 E24.75864
G1 X142.784 Y123.984 E24.76869
G1 X142.243 Y124.145 E24.77872
G1 X141.685 Y124.228 E24.78875
G1 X141.377 Y124.24 E24.79423
G1 X91.623 Y124.24 E25.67866
G1 X91.06 Y124.2 E25.68869
G1 X90.508 Y124.081 E25.69873
G1 X89.978 Y123.885 E25.70877
G1 X89.482 Y123.617 E25.71879
G1 X89.028 Y123.281 E25.72883
G1 X88.802 Y123.071 E25.73432
G1 X88.679 Y122.948 E25.73741
G1 X88.309 Y122.522 E25.74744
G1 X88.003 Y122.047 E25.75748
G1 X87.766 Y121.534 E25.76753
G1 X87.605 Y120.993 E25.77756
G1 X87.522 Y120.435 E25.78759
G1 X87.51 Y120.127 E25.79307
G1 X87.51 Y94.873 E26.24198
G1 X87.55 Y94.31 E26.25202
G1 X87.669 Y93.758 E26.26206
G1 X87.865 Y93.228 E26.2721
G1 X88.133 Y92.732 E26.28212
G1 X88.469 Y92.278 E26.29216
G1 X88.679 Y92.052 E26.29765
G1 X88.802 Y91.929 E26.30074
M204 S625
M205 X6 Y6
G0 F4285.7 X89.099 Y92.226
M204 S500
M205 X5 Y5
G1 F1200 X89.503 Y91.877 E26.31023
G1 X89.956 Y91.593 E26.31973
G1 X90.445 Y91.38 E26.32921
G1 X90.961 Y91.242 E26.33871
G1 X91.623 Y91.18 E26.35053
G1 X141.377 Y91.18 E27.23495
G1 X141.91 Y91.22 E27.24445
G1 X142.43 Y91.339 E27.25394
G1 X142.927 Y91.534 E27.26343
G1 X143.39 Y91.801 E27.27293
G1 X143.807 Y92.135 E27.28243
G1 X144.17 Y92.526 E27.29191
G1 X144.47 Y92.968 E27.3014
G1 X144.702 Y93.449 E27.3109
G1 X144.858 Y93.96 E27.3204
G1 X144.947 Y94.733 E27.33423
G1 X145.07 Y120.11 E27.78533
G1 X145.033 Y120.642 E27.79481
G1 X144.916 Y121.164 E27.80432
G1 X144.723 Y121.662 E27.81382
G1 X144.458 Y122.125 E27.8233
G1 X144.024 Y122.651 E27.83542
G1 X143.901 Y122.774 E27.83851
G1 X143.497 Y123.123 E27.848
