;START_OF_HEADER
;HEADER_VERSION:0.1
;FLAVOR:Griffin
;GENERATOR.NAME:Cura_SteamEngine
;GENERATOR.VERSION:4.3.0
;GENERATOR.BUILD_DATE:2019-09-24
;TARGET_MACHINE.NAME:Ultimaker 3
;EXTRUDER_TRAIN.0.INITIAL_TEMPERATURE:210
;EXTRUDER_TRAIN.0.MATERIAL.VOLUME_USED:31653
;EXTRUDER_TRAIN.0.MATERIAL.GUID:506c9f0d-e3aa-4bd4-b2d2-23e2425b1aa9
;EXTRUDER_TRAIN.0.NOZZLE.DIAMETER:0.4
;EXTRUDER_TRAIN.0.NOZZLE.NAME:AA 0.4
;BUILD_PLATE.TYPE:glass
;BUILD_PLATE.INITIAL_TEMPERATURE:60
;PRINT.TIME:12141
;PRINT.GROUPS:1
;PRINT.SIZE.MIN.X:9
;PRINT.SIZE.MIN.Y:6
;PRINT.SIZE.MIN.Z:0.27
;PRINT.SIZE.MAX.X:159.68
;PRINT.SIZE.MAX.Y:147.63
;PRINT.SIZE.MAX.Z:67.27
;END_OF_HEADER
;Generated with Cura_SteamEngine 4.3.0
T0
M82 ;absolute extrusion mode

G92 E0
M109 S210
G0 F15000 X9 Y6 Z2
G280
G1 F1500 E-6.5
;LAYER_COUNT:336
;LAYER:0
M107
M204 S625
M205 X6 Y6
G1 F600 Z2.27
G0 F4285.7 X81.65 Y70.4 Z2.27
M204 S500
M205 X5 Y5
;TYPE:SKIRT
G1 F600 Z0.27
G1 F1500 E0
G1 F1200 X82.65 Y69.4 E0.02514
G1 X83.204 Y68.902 E0.03838
G1 X83.808 Y68.467 E0.05161
G1 X84.455 Y68.1 E0.06483
G1 X85.137 Y67.803 E0.07806
G1 X85.848 Y67.582 E0.09129
G1 X86.578 Y67.438 E0.10452
G1 X87.55 Y67.37 E0.12184
G1 X151.75 Y67.37 E1.26306
G1 X152.493 Y67.41 E1.27628
G1 X153.228 Y67.529 E1.28952
G1 X153.946 Y67.727 E1.30276
G1 X154.638 Y68 E1.31598
G1 X155.297 Y68.346 E1.32921
G1 X155.915 Y68.761 E1.34245
G1 X156.65 Y69.4 E1.35976
G1 X157.65 Y70.4 E1.3849
G1 X158.148 Y70.954 E1.39814
G1 X158.583 Y71.558 E1.41137
G1 X158.95 Y72.205 E1.42459
G1 X159.247 Y72.887 E1.43782
G1 X159.468 Y73.598 E1.45105
G1 X159.612 Y74.328 E1.46428
G1 X159.68 Y75.3 E1.4816
G1 X159.68 Y139.7 E2.62637
G1 X159.64 Y140.443 E2.6396
G1 X159.521 Y141.178 E2.65283
G1 X159.323 Y141.896 E2.66607
G1 X159.05 Y142.588 E2.6793
G1 X158.704 Y143.247 E2.69253
G1 X158.289 Y143.865 E2.70576
G1 X157.65 Y144.6 E2.72307
G1 X156.65 Y145.6 E2.74821
G1 X156.096 Y146.098 E2.76145
G1 X155.492 Y146.533 E2.77469
G1 X154.845 Y146.9 E2.78791
G1 X154.163 Y147.197 E2.80113
G1 X153.452 Y147.418 E2.81437
G1 X152.722 Y147.562 E2.82759
G1 X151.75 Y147.63 E2.84491
G1 X87.55 Y147.63 E3.98613
G1 X86.807 Y147.59 E3.99936
G1 X86.072 Y147.471 E4.01259
G1 X85.354 Y147.273 E4.02583
G1 X84.662 Y147 E4.03906
G1 X84.003 Y146.654 E4.05229
G1 X83.385 Y146.239 E4.06552
G1 X82.65 Y145.6 E4.08283
G1 X81.65 Y144.6 E4.10797
G1 X81.152 Y144.046 E4.12121
G1 X80.717 Y143.442 E4.13444
G1 X80.35 Y142.795 E4.14767
G1 X80.053 Y142.113 E4.16089
G1 X79.832 Y141.402 E4.17412
G1 X79.688 Y140.672 E4.18735
G1 X79.62 Y139.7 E4.20467
G1 X79.62 Y75.3 E5.34944
G1 X79.66 Y74.557 E5.36267
G1 X79.779 Y73.822 E5.37591
G1 X79.977 Y73.104 E5.38915
G1 X80.25 Y72.412 E5.40237
G1 X80.596 Y71.753 E5.4156
G1 X81.011 Y71.135 E5.42883
G1 X81.65 Y70.4 E5.44615
M204 S625
M205 X6 Y6
G0 F4285.7 X81.947 Y70.697
M204 S500
M205 X5 Y5
G1 F1200 X82.947 Y69.697 E5.47128
G1 X83.484 Y69.216 E5.4841
G1 X84.072 Y68.797 E5.49693
G1 X84.702 Y68.446 E5.50975
G1 X85.367 Y68.167 E5.52257
G1 X86.059 Y67.963 E5.5354
G1 X86.769 Y67.837 E5.54822
G1 X87.55 Y67.79 E5.56212
G1 X151.75 Y67.79 E6.70334
G1 X152.47 Y67.83 E6.71616
G1 X153.182 Y67.949 E6.72899
G1 X153.876 Y68.147 E6.74182
G1 X154.543 Y68.42 E6.75463
G1 X155.177 Y68.765 E6.76746
G1 X155.768 Y69.178 E6.78028
G1 X156.353 Y69.697 E6.79418
G1 X157.353 Y70.697 E6.81932
G1 X157.834 Y71.234 E6.83214
G1 X158.253 Y71.822 E6.84497
G1 X158.604 Y72.452 E6.85779
G1 X158.883 Y73.117 E6.87061
G1 X159.087 Y73.809 E6.88343
G1 X159.213 Y74.519 E6.89625
G1 X159.26 Y75.3 E6.91016
G1 X159.26 Y139.7 E8.05493
G1 X159.22 Y140.42 E8.06775
G1 X159.101 Y141.132 E8.08058
G1 X158.903 Y141.826 E8.09341
G1 X158.63 Y142.493 E8.10622
G1 X158.285 Y143.127 E8.11905
G1 X157.872 Y143.718 E8.13187
G1 X157.353 Y144.303 E8.14577
G1 X156.353 Y145.303 E8.17091
G1 X155.816 Y145.784 E8.18373
G1 X155.228 Y146.203 E8.19656
G1 X154.598 Y146.554 E8.20938
G1 X153.933 Y146.833 E8.2222
G1 X153.241 Y147.037 E8.23502
G1 X152.531 Y147.163 E8.24784
G1 X151.75 Y147.21 E8.26175
G1 X87.55 Y147.21 E9.40297
G1 X86.83 Y147.17 E9.41579
G1 X86.118 Y147.051 E9.42862
G1 X85.424 Y146.853 E9.44145
G1 X84.757 Y146.58 E9.45426
G1 X84.123 Y146.235 E9.46709
G1 X83.532 Y145.822 E9.4799
G1 X82.947 Y145.303 E9.49381
G1 X81.947 Y144.303 E9.51895
G1 X81.466 Y143.766 E9.53176
G1 X81.047 Y143.178 E9.54459
G1 X80.696 Y142.548 E9.55741
G1 X80.417 Y141.883 E9.57023
G1 X80.213 Y141.191 E9.58306
G1 X80.087 Y140.481 E9.59588
G1 X80.04 Y139.7 E9.60978
G1 X80.04 Y75.3 E10.75456
G1 X80.08 Y74.58 E10.76738
G1 X80.199 Y73.868 E10.78021
G1 X80.397 Y73.174 E10.79304
G1 X80.67 Y72.507 E10.80585
G1 X81.015 Y71.873 E10.81868
G1 X81.428 Y71.282 E10.8315
G1 X81.947 Y70.697 E10.8454
M204 S625
M205 X6 Y6
G0 F4285.7 X82.244 Y70.994
M204 S500
M205 X5 Y5
G1 F1200 X83.244 Y69.994 E10.87054
G1 X83.765 Y69.529 E10.88295
G1 X84.335 Y69.128 E10.89534
G1 X84.948 Y68.794 E10.90775
G1 X85.595 Y68.532 E10.92015
G1 X86.267 Y68.347 E10.93254
G1 X86.956 Y68.239 E10.94494
G1 X87.55 Y68.21 E10.95551
G1 X151.75 Y68.21 E12.09673
G1 X152.447 Y68.25 E12.10914
G1 X153.134 Y68.369 E12.12154
G1 X153.803 Y68.567 E12.13394
G1 X154.446 Y68.839 E12.14635
G1 X155.052 Y69.183 E12.15873
G1 X155.616 Y69.595 E12.17115
G1 X156.056 Y69.994 E12.18171
G1 X157.056 Y70.994 E12.20685
G1 X157.521 Y71.515 E12.21926
G1 X157.922 Y72.085 E12.23165
G1 X158.256 Y72.698 E12.24406
G1 X158.518 Y73.345 E12.25647
G1 X158.703 Y74.017 E12.26886
G1 X158.811 Y74.706 E12.28125
G1 X158.84 Y75.3 E12.29183
G1 X158.84 Y139.7 E13.4366
G1 X158.8 Y140.397 E13.44901
G1 X158.681 Y141.084 E13.4614
G1 X158.483 Y141.753 E13.47381
G1 X158.211 Y142.396 E13.48622
G1 X157.867 Y143.002 E13.4986
G1 X157.455 Y143.566 E13.51102
G1 X157.056 Y144.006 E13.52158
G1 X156.056 Y145.006 E13.54672
G1 X155.535 Y145.471 E13.55913
G1 X154.965 Y145.872 E13.57152
G1 X154.352 Y146.206 E13.58393
G1 X153.705 Y146.468 E13.59633
G1 X153.033 Y146.653 E13.60872
G1 X152.344 Y146.761 E13.62112
G1 X151.75 Y146.79 E13.63169
G1 X87.55 Y146.79 E14.77291
G1 X86.853 Y146.75 E14.78532
G1 X86.166 Y146.631 E14.79772
G1 X85.497 Y146.433 E14.81012
G1 X84.854 Y146.161 E14.82253
G1 X84.248 Y145.817 E14.83491
G1 X83.684 Y145.405 E14.84733
G1 X83.244 Y145.006 E14.85789
G1 X82.244 Y144.006 E14.88303
G1 X81.779 Y143.485 E14.89544
G1 X81.378 Y142.915 E14.90783
G1 X81.044 Y142.302 E14.92024
G1 X80.782 Y141.655 E14.93265
G1 X80.597 Y140.983 E14.94504
G1 X80.489 Y140.294 E14.95743
G1 X80.46 Y139.7 E14.96801
G1 X80.46 Y75.3 E16.11278
G1 X80.5 Y74.603 E16.12519
G1 X80.619 Y73.916 E16.13758
G1 X80.817 Y73.247 E16.14999
G1 X81.089 Y72.604 E16.1624
G1 X81.433 Y71.998 E16.17478
G1 X81.845 Y71.434 E16.1872
G1 X82.244 Y70.994 E16.19776
M204 S625
M205 X6 Y6
G0 F4285.7 X82.541 Y71.291
M204 S500
M205 X5 Y5
G1 F1200 X83.541 Y70.291 E16.2229
G1 X84.044 Y69.844 E16.23486
G1 X84.597 Y69.46 E16.24682
G1 X85.192 Y69.144 E16.2588
G1 X85.819 Y68.901 E16.27075
G1 X86.471 Y68.734 E16.28272
G1 X87.139 Y68.645 E16.2947
G1 X87.55 Y68.63 E16.30201
G1 X151.75 Y68.63 E17.44323
G1 X152.422 Y68.67 E17.45519
G1 X153.085 Y68.789 E17.46717
G1 X153.728 Y68.986 E17.47912
G1 X154.344 Y69.258 E17.49109
G1 X154.923 Y69.601 E17.50305
G1 X155.458 Y70.01 E17.51502
G1 X155.759 Y70.291 E17.52234
G1 X156.759 Y71.291 E17.54748
G1 X157.206 Y71.794 E17.55944
G1 X157.59 Y72.347 E17.57141
G1 X157.906 Y72.942 E17.58339
G1 X158.149 Y73.569 E17.59534
G1 X158.316 Y74.221 E17.60731
G1 X158.405 Y74.889 E17.61928
G1 X158.42 Y75.3 E17.6266
G1 X158.42 Y139.7 E18.77137
G1 X158.38 Y140.372 E18.78334
G1 X158.261 Y141.035 E18.79531
G1 X158.064 Y141.678 E18.80726
G1 X157.792 Y142.294 E18.81923
G1 X157.449 Y142.873 E18.8312
G1 X157.04 Y143.408 E18.84317
G1 X156.759 Y143.709 E18.85049
G1 X155.759 Y144.709 E18.87563
G1 X155.256 Y145.156 E18.88759
G1 X154.703 Y145.54 E18.89956
G1 X154.108 Y145.856 E18.91153
G1 X153.481 Y146.099 E18.92348
G1 X152.829 Y146.266 E18.93545
G1 X152.161 Y146.355 E18.94743
G1 X151.75 Y146.37 E18.95474
G1 X87.55 Y146.37 E20.09596
G1 X86.878 Y146.33 E20.10792
G1 X86.215 Y146.211 E20.1199
G1 X85.572 Y146.014 E20.13185
G1 X84.956 Y145.742 E20.14382
G1 X84.377 Y145.399 E20.15578
G1 X83.842 Y144.99 E20.16775
G1 X83.541 Y144.709 E20.17507
G1 X82.541 Y143.709 E20.20021
G1 X82.094 Y143.206 E20.21217
G1 X81.71 Y142.653 E20.22414
G1 X81.394 Y142.058 E20.23612
G1 X81.151 Y141.431 E20.24807
G1 X80.984 Y140.779 E20.26004
G1 X80.895 Y140.111 E20.27202
G1 X80.88 Y139.7 E20.27933
G1 X80.88 Y75.3 E21.4241
G1 X80.92 Y74.628 E21.43607
G1 X81.039 Y73.965 E21.44804
G1 X81.236 Y73.322 E21.45999
G1 X81.508 Y72.706 E21.47196
G1 X81.851 Y72.127 E21.48393
G1 X82.26 Y71.592 E21.4959
G1 X82.541 Y71.291 E21.50322
M204 S625
M205 X6 Y6
G0 F4285.7 X82.838 Y71.588
M204 S500
M205 X5 Y5
G1 F1200 X83.838 Y70.588 E21.52836
G1 X84.323 Y70.159 E21.53987
G1 X84.858 Y69.793 E21.55139
G1 X85.433 Y69.496 E21.56289
G1 X86.041 Y69.272 E21.57441
G1 X86.672 Y69.124 E21.58593
G1 X87.55 Y69.05 E21.60159
G1 X151.75 Y69.05 E22.74281
G1 X152.397 Y69.09 E22.75433
G1 X153.033 Y69.209 E22.76584
G1 X153.65 Y69.406 E22.77735
G1 X154.239 Y69.677 E22.78888
G1 X154.789 Y70.019 E22.80039
G1 X155.462 Y70.588 E22.81605
G1 X156.462 Y71.588 E22.84119
G1 X156.891 Y72.073 E22.8527
G1 X157.257 Y72.608 E22.86423
G1 X157.554 Y73.183 E22.87573
G1 X157.778 Y73.791 E22.88725
G1 X157.926 Y74.422 E22.89877
G1 X158 Y75.3 E22.91443
G1 X158 Y139.7 E24.0592
G1 X157.96 Y140.347 E24.07073
G1 X157.841 Y140.983 E24.08223
G1 X157.644 Y141.6 E24.09374
G1 X157.373 Y142.189 E24.10527
G1 X157.031 Y142.739 E24.11678
G1 X156.462 Y143.412 E24.13245
G1 X155.462 Y144.412 E24.15759
G1 X154.977 Y144.841 E24.1691
G1 X154.442 Y145.207 E24.18062
G1 X153.867 Y145.504 E24.19212
G1 X153.259 Y145.728 E24.20364
G1 X152.628 Y145.876 E24.21516
G1 X151.75 Y145.95 E24.23082
G1 X87.55 Y145.95 E25.37204
G1 X86.903 Y145.91 E25.38356
G1 X86.267 Y145.791 E25.39507
G1 X85.65 Y145.594 E25.40658
G1 X85.061 Y145.323 E25.4181
G1 X84.511 Y144.981 E25.42962
G1 X83.838 Y144.412 E25.44528
G1 X82.838 Y143.412 E25.47042
G1 X82.409 Y142.927 E25.48193
G1 X82.043 Y142.392 E25.49345
G1 X81.746 Y141.817 E25.50496
G1 X81.522 Y141.209 E25.51648
G1 X81.374 Y140.578 E25.528
G1 X81.3 Y139.7 E25.54366
G1 X81.3 Y75.3 E26.68843
G1 X81.34 Y74.653 E26.69996
G1 X81.459 Y74.017 E26.71146
G1 X81.656 Y73.4 E26.72297
G1 X81.927 Y72.811 E26.7345
G1 X82.269 Y72.261 E26.74601
G1 X82.838 Y71.588 E26.76168
M204 S625
M205 X6 Y6
G0 F4285.7 X83.135 Y71.885
M204 S500
M205 X5 Y5
G1 F1200 X84.135 Y70.885 E26.78681
G1 X84.601 Y70.475 E26.79785
G1 X85.117 Y70.128 E26.8089
G1 X85.673 Y69.85 E26.81995
G1 X86.259 Y69.646 E26.83098
G1 X86.867 Y69.518 E26.84203
G1 X87.55 Y69.47 E26.8542
G1 X151.75 Y69.47 E27.99541
G1 X152.37 Y69.51 E28.00646
G1 X152.98 Y69.629 E28.01751
G1 X153.569 Y69.826 E28.02855
G1 X154.128 Y70.096 E28.03958
G1 X154.648 Y70.436 E28.05063
G1 X155.165 Y70.885 E28.0628
G1 X156.165 Y71.885 E28.08794
G1 X156.575 Y72.351 E28.09897
G1 X156.922 Y72.867 E28.11002
G1 X157.2 Y73.423 E28.12107
G1 X157.404 Y74.009 E28.1321
G1 X157.532 Y74.617 E28.14315
G1 X157.58 Y75.3 E28.15532
G1 X157.58 Y139.7 E29.30009
G1 X157.54 Y140.32 E29.31114
G1 X157.421 Y140.93 E29.32218
G1 X157.224 Y141.519 E29.33322
G1 X156.954 Y142.078 E29.34426
G1 X156.614 Y142.598 E29.3553
G1 X156.165 Y143.115 E29.36748
G1 X155.165 Y144.115 E29.39261
G1 X154.699 Y144.525 E29.40365
G1 X154.183 Y144.872 E29.4147
G1 X153.627 Y145.15 E29.42575
G1 X153.041 Y145.354 E29.43678
G1 X152.433 Y145.482 E29.44783
G1 X151.75 Y145.53 E29.46
G1 X87.55 Y145.53 E30.60121
G1 X86.93 Y145.49 E30.61226
G1 X86.32 Y145.371 E30.62331
G1 X85.731 Y145.174 E30.63435
G1 X85.172 Y144.904 E30.64538
G1 X84.652 Y144.564 E30.65643
G1 X84.135 Y144.115 E30.6686
G1 X83.135 Y143.115 E30.69374
G1 X82.725 Y142.649 E30.70477
G1 X82.378 Y142.133 E30.71582
G1 X82.1 Y141.577 E30.72687
G1 X81.896 Y140.991 E30.7379
G1 X81.768 Y140.383 E30.74895
G1 X81.72 Y139.7 E30.76112
G1 X81.72 Y75.3 E31.90589
G1 X81.76 Y74.68 E31.91694
G1 X81.879 Y74.07 E31.92798
G1 X82.076 Y73.481 E31.93902
G1 X82.346 Y72.922 E31.95006
G1 X82.686 Y72.402 E31.9611
G1 X83.135 Y71.885 E31.97328
M204 S625
M205 X6 Y6
G0 F4285.7 X83.432 Y72.182
M204 S500
M205 X5 Y5
G1 F1200 X84.432 Y71.182 E31.99841
G1 X84.879 Y70.791 E32.00897
G1 X85.374 Y70.464 E32.01952
G1 X85.909 Y70.207 E32.03007
G1 X86.474 Y70.023 E32.04063
G1 X87.058 Y69.918 E32.05118
G1 X87.55 Y69.89 E32.05994
G1 X151.75 Y69.89 E33.20116
G1 X152.342 Y69.93 E33.2117
G1 X152.924 Y70.049 E33.22226
G1 X153.484 Y70.245 E33.23281
G1 X154.013 Y70.515 E33.24337
G1 X154.501 Y70.853 E33.25392
G1 X154.868 Y71.182 E33.26268
G1 X155.868 Y72.182 E33.28782
G1 X156.259 Y72.629 E33.29838
G1 X156.586 Y73.124 E33.30892
G1 X156.843 Y73.659 E33.31947
G1 X157.027 Y74.224 E33.33003
G1 X157.132 Y74.808 E33.34058
G1 X157.16 Y75.3 E33.34934
G1 X157.16 Y139.7 E34.49412
G1 X157.12 Y140.292 E34.50466
G1 X157.001 Y140.874 E34.51522
G1 X156.805 Y141.434 E34.52577
G1 X156.535 Y141.963 E34.53633
G1 X156.197 Y142.451 E34.54688
G1 X155.868 Y142.818 E34.55564
G1 X154.868 Y143.818 E34.58078
G1 X154.421 Y144.209 E34.59134
G1 X153.926 Y144.536 E34.60188
G1 X153.391 Y144.793 E34.61243
G1 X152.826 Y144.977 E34.62299
G1 X152.242 Y145.082 E34.63354
G1 X151.75 Y145.11 E34.6423
G1 X87.55 Y145.11 E35.78352
G1 X86.958 Y145.07 E35.79407
G1 X86.376 Y144.951 E35.80463
G1 X85.816 Y144.755 E35.81517
G1 X85.287 Y144.485 E35.82573
G1 X84.799 Y144.147 E35.83628
G1 X84.432 Y143.818 E35.84504
G1 X83.432 Y142.818 E35.87018
G1 X83.041 Y142.371 E35.88074
G1 X82.714 Y141.876 E35.89129
G1 X82.457 Y141.341 E35.90184
G1 X82.273 Y140.776 E35.9124
G1 X82.168 Y140.192 E35.92295
G1 X82.14 Y139.7 E35.93171
G1 X82.14 Y75.3 E37.07648
G1 X82.18 Y74.708 E37.08703
G1 X82.299 Y74.126 E37.09759
G1 X82.495 Y73.566 E37.10813
G1 X82.765 Y73.037 E37.11869
G1 X83.103 Y72.549 E37.12924
G1 X83.432 Y72.182 E37.138
M204 S625
M205 X6 Y6
G0 F4285.7 X83.729 Y72.479
M204 S500
M205 X5 Y5
G1 F1200 X84.729 Y71.479 E37.16314
G1 X85.155 Y71.109 E37.17317
G1 X85.63 Y70.803 E37.18322
G1 X86.143 Y70.566 E37.19326
G1 X86.684 Y70.405 E37.2033
G1 X87.242 Y70.322 E37.21332
G1 X87.55 Y70.31 E37.2188
G1 X151.75 Y70.31 E38.36002
G1 X152.313 Y70.35 E38.37005
G1 X152.865 Y70.469 E38.38009
G1 X153.395 Y70.665 E38.39014
G1 X153.891 Y70.933 E38.40016
G1 X154.345 Y71.269 E38.4102
G1 X154.571 Y71.479 E38.41568
G1 X155.571 Y72.479 E38.44082
G1 X155.941 Y72.905 E38.45085
G1 X156.247 Y73.38 E38.4609
G1 X156.484 Y73.893 E38.47094
G1 X156.645 Y74.434 E38.48097
G1 X156.728 Y74.992 E38.491
G1 X156.74 Y75.3 E38.49648
G1 X156.74 Y139.7 E39.64125
G1 X156.7 Y140.263 E39.65129
G1 X156.581 Y140.815 E39.66133
G1 X156.385 Y141.345 E39.67137
G1 X156.117 Y141.841 E39.68139
G1 X155.781 Y142.295 E39.69143
G1 X155.571 Y142.521 E39.69692
G1 X154.571 Y143.521 E39.72206
G1 X154.145 Y143.891 E39.73209
G1 X153.67 Y144.197 E39.74213
G1 X153.157 Y144.434 E39.75217
G1 X152.616 Y144.595 E39.76221
G1 X152.058 Y144.678 E39.77224
G1 X151.75 Y144.69 E39.77772
G1 X87.55 Y144.69 E40.91893
G1 X86.987 Y144.65 E40.92897
G1 X86.435 Y144.531 E40.939
G1 X85.905 Y144.335 E40.94905
G1 X85.409 Y144.067 E40.95907
G1 X84.955 Y143.731 E40.96911
G1 X84.729 Y143.521 E40.97459
G1 X83.729 Y142.521 E40.99973
G1 X83.359 Y142.095 E41.00976
G1 X83.053 Y141.62 E41.01981
G1 X82.816 Y141.107 E41.02985
G1 X82.655 Y140.566 E41.03989
G1 X82.572 Y140.008 E41.04991
G1 X82.56 Y139.7 E41.05539
G1 X82.56 Y75.3 E42.20017
G1 X82.6 Y74.737 E42.2102
G1 X82.719 Y74.185 E42.22024
G1 X82.915 Y73.655 E42.23028
G1 X83.183 Y73.159 E42.2403
G1 X83.519 Y72.705 E42.25034
G1 X83.729 Y72.479 E42.25583
M204 S625
M205 X6 Y6
G0 F4285.7 X84.026 Y72.776
M204 S500
M205 X5 Y5
G1 F1200 X85.026 Y71.776 E42.28097
G1 X85.43 Y71.427 E42.29046
G1 X85.883 Y71.143 E42.29996
G1 X86.372 Y70.93 E42.30944
G1 X86.888 Y70.792 E42.31894
G1 X87.55 Y70.73 E42.33076
G1 X151.75 Y70.73 E43.47197
G1 X152.283 Y70.77 E43.48148
G1 X152.803 Y70.889 E43.49096
G1 X153.3 Y71.084 E43.50045
G1 X153.763 Y71.351 E43.50995
G1 X154.274 Y71.776 E43.52176
G1 X155.274 Y72.776 E43.5469
G1 X155.623 Y73.18 E43.55639
G1 X155.907 Y73.633 E43.5659
G1 X156.12 Y74.122 E43.57538
G1 X156.258 Y74.638 E43.58487
G1 X156.32 Y75.3 E43.59669
