;START_OF_HEADER
;HEADER_VERSION:0.1
;FLAVOR:Griffin
;GENERATOR.NAME:Cura_SteamEngine
;GENERATOR.VERSION:4.3.0
;GENERATOR.BUILD_DATE:2019-09-24
;TARGET_MACHINE.NAME:Ultimaker 3
;EXTRUDER_TRAIN.0.INITIAL_TEMPERATURE:210
;EXTRUDER_TRAIN.0.MATERIAL.VOLUME_USED:4722
;EXTRUDER_TRAIN.0.MATERIAL.GUID:506c9f0d-e3aa-4bd4-b2d2-23e2425b1aa9
;EXTRUDER_TRAIN.0.NOZZLE.DIAMETER:0.4
;EXTRUDER_TRAIN.0.NOZZLE.NAME:AA 0.4
;EXTRUDER_TRAIN.1.INITIAL_TEMPERATURE:100
;EXTRUDER_TRAIN.1.MATERIAL.VOLUME_USED:30
;EXTRUDER_TRAIN.1.MATERIAL.GUID:506c9f0d-e3aa-4bd4-b2d2-23e2425b1aa9
;EXTRUDER_TRAIN.1.NOZZLE.DIAMETER:0.4
;EXTRUDER_TRAIN.1.NOZZLE.NAME:AA 0.4
;BUILD_PLATE.TYPE:glass
;BUILD_PLATE.INITIAL_TEMPERATURE:60
;PRINT.TIME:1924
;PRINT.GROUPS:1
;PRINT.SIZE.MIN.X:9
;PRINT.SIZE.MIN.Y:6
;PRINT.SIZE.MIN.Z:0.27
;PRINT.SIZE.MAX.X:213
;PRINT.SIZE.MAX.Y:207
;PRINT.SIZE.MAX.Z:8.87
;END_OF_HEADER
;Generated with Cura_SteamEngine 4.3.0
T0
M82 ;absolute extrusion mode

G92 E0
M109 S210
G0 F15000 X9 Y6 Z2
G280
G1 F1500 E-6.5
;LAYER_COUNT:44
;LAYER:0
M107
M204 S625
M205 X6 Y6
G1 F600 Z2.27
G0 F4285.7 X60.69 Y97.228 Z2.27
M204 S500
M205 X5 Y5
;TYPE:SKIRT
G1 F600 Z0.27
G1 F1500 E0
G1 F1200 X61.246 Y96.95 E0.01105
G1 X61.832 Y96.746 E0.02208
G1 X62.44 Y96.618 E0.03312
G1 X63.123 Y96.57 E0.0453
G1 X169.877 Y96.57 E1.94295
G1 X170.497 Y96.61 E1.954
G1 X171.107 Y96.729 E1.96504
G1 X171.696 Y96.926 E1.97608
G1 X172.255 Y97.196 E1.98712
G1 X172.775 Y97.536 E1.99816
G1 X173.247 Y97.94 E2.00921
G1 X173.664 Y98.402 E2.02027
G1 X174.017 Y98.912 E2.0313
G1 X174.302 Y99.464 E2.04234
G1 X174.514 Y100.049 E2.0534
G1 X174.649 Y100.655 E2.06444
G1 X174.707 Y101.351 E2.07685
G1 X174.83 Y113.428 E2.29154
G1 X174.796 Y114.048 E2.30258
G1 X174.683 Y114.659 E2.31363
G1 X174.493 Y115.25 E2.32466
G1 X174.228 Y115.813 E2.33572
G1 X173.893 Y116.336 E2.34676
G1 X173.415 Y116.892 E2.3598
G1 X173.292 Y117.015 E2.36289
G1 X172.826 Y117.425 E2.37392
G1 X172.31 Y117.772 E2.38497
G1 X171.754 Y118.05 E2.39602
G1 X171.168 Y118.254 E2.40705
G1 X170.56 Y118.382 E2.4181
G1 X169.877 Y118.43 E2.43027
G1 X63.123 Y118.43 E4.32793
G1 X62.503 Y118.39 E4.33897
G1 X61.893 Y118.271 E4.35002
G1 X61.304 Y118.074 E4.36106
G1 X60.745 Y117.804 E4.37209
G1 X60.225 Y117.464 E4.38314
G1 X59.708 Y117.015 E4.39531
G1 X59.585 Y116.892 E4.3984
G1 X59.175 Y116.426 E4.40944
G1 X58.828 Y115.91 E4.42049
G1 X58.55 Y115.354 E4.43154
G1 X58.346 Y114.768 E4.44257
G1 X58.218 Y114.16 E4.45361
G1 X58.17 Y113.477 E4.46578
G1 X58.17 Y101.523 E4.67828
G1 X58.21 Y100.903 E4.68932
G1 X58.329 Y100.293 E4.70037
G1 X58.526 Y99.704 E4.71141
G1 X58.796 Y99.145 E4.72245
G1 X59.136 Y98.625 E4.73349
G1 X59.585 Y98.108 E4.74566
G1 X59.708 Y97.985 E4.74875
G1 X60.174 Y97.575 E4.75979
G1 X60.69 Y97.228 E4.77084
M204 S625
M205 X6 Y6
G0 F4285.7 X60.947 Y97.564
M204 S500
M205 X5 Y5
G1 F1200 X61.482 Y97.307 E4.78139
G1 X62.047 Y97.123 E4.79195
G1 X62.631 Y97.018 E4.8025
G1 X63.123 Y96.99 E4.81126
G1 X169.877 Y96.99 E6.70892
G1 X170.469 Y97.03 E6.71947
G1 X171.051 Y97.149 E6.73003
G1 X171.611 Y97.345 E6.74057
G1 X172.14 Y97.615 E6.75113
G1 X172.628 Y97.953 E6.76168
G1 X173.066 Y98.354 E6.77224
G1 X173.446 Y98.81 E6.78279
G1 X173.762 Y99.313 E6.79335
G1 X174.007 Y99.853 E6.80389
G1 X174.177 Y100.422 E6.81445
G1 X174.27 Y101.008 E6.82499
G1 X174.287 Y101.355 E6.83117
G1 X174.41 Y113.432 E7.04586
G1 X174.376 Y114.025 E7.05642
G1 X174.263 Y114.607 E7.06696
G1 X174.072 Y115.17 E7.07753
G1 X173.808 Y115.701 E7.08807
G1 X173.475 Y116.193 E7.09863
G1 X173.118 Y116.595 E7.10818
G1 X172.995 Y116.718 E7.11128
G1 X172.548 Y117.109 E7.12183
G1 X172.053 Y117.436 E7.13238
G1 X171.518 Y117.693 E7.14293
G1 X170.953 Y117.877 E7.15349
G1 X170.369 Y117.982 E7.16404
G1 X169.877 Y118.01 E7.1728
G1 X63.123 Y118.01 E9.07046
G1 X62.531 Y117.97 E9.081
G1 X61.949 Y117.851 E9.09156
G1 X61.389 Y117.655 E9.10211
G1 X60.86 Y117.385 E9.11267
G1 X60.372 Y117.047 E9.12322
G1 X60.005 Y116.718 E9.13198
G1 X59.882 Y116.595 E9.13507
G1 X59.491 Y116.148 E9.14563
G1 X59.164 Y115.653 E9.15618
G1 X58.907 Y115.118 E9.16673
G1 X58.723 Y114.553 E9.17729
G1 X58.618 Y113.969 E9.18784
G1 X58.59 Y113.477 E9.1966
G1 X58.59 Y101.523 E9.40909
G1 X58.63 Y100.931 E9.41964
G1 X58.749 Y100.349 E9.4302
G1 X58.945 Y99.789 E9.44074
G1 X59.215 Y99.26 E9.4513
G1 X59.553 Y98.772 E9.46185
G1 X59.882 Y98.405 E9.47062
G1 X60.005 Y98.282 E9.47371
G1 X60.452 Y97.891 E9.48426
G1 X60.947 Y97.564 E9.49481
M204 S625
M205 X6 Y6
G0 F4285.7 X61.203 Y97.903
M204 S500
M205 X5 Y5
G1 F1200 X61.716 Y97.666 E9.50485
G1 X62.257 Y97.505 E9.51489
G1 X62.815 Y97.422 E9.52492
G1 X63.123 Y97.41 E9.5304
G1 X169.877 Y97.41 E11.42805
G1 X170.44 Y97.45 E11.43809
G1 X170.992 Y97.569 E11.44812
G1 X171.522 Y97.765 E11.45817
G1 X172.018 Y98.033 E11.46819
G1 X172.472 Y98.369 E11.47823
G1 X172.874 Y98.766 E11.48827
G1 X173.216 Y99.215 E11.49831
G1 X173.491 Y99.709 E11.50836
G1 X173.693 Y100.236 E11.51839
G1 X173.819 Y100.786 E11.52842
G1 X173.867 Y101.359 E11.53864
G1 X173.99 Y113.436 E11.75333
G1 X173.956 Y114 E11.76338
G1 X173.842 Y114.553 E11.77341
G1 X173.652 Y115.085 E11.78345
G1 X173.388 Y115.584 E11.79349
G1 X173.057 Y116.041 E11.80352
G1 X172.821 Y116.298 E11.80972
G1 X172.698 Y116.421 E11.81281
G1 X172.272 Y116.791 E11.82284
G1 X171.797 Y117.097 E11.83289
G1 X171.284 Y117.334 E11.84293
G1 X170.743 Y117.495 E11.85297
G1 X170.185 Y117.578 E11.863
G1 X169.877 Y117.59 E11.86847
G1 X63.123 Y117.59 E13.76613
G1 X62.56 Y117.55 E13.77616
G1 X62.008 Y117.431 E13.7862
G1 X61.478 Y117.235 E13.79625
G1 X60.982 Y116.967 E13.80627
G1 X60.528 Y116.631 E13.81631
G1 X60.302 Y116.421 E13.82179
G1 X60.179 Y116.298 E13.82488
G1 X59.809 Y115.872 E13.83491
G1 X59.503 Y115.397 E13.84496
G1 X59.266 Y114.884 E13.855
G1 X59.105 Y114.343 E13.86504
G1 X59.022 Y113.785 E13.87507
G1 X59.01 Y113.477 E13.88054
G1 X59.01 Y101.523 E14.09304
G1 X59.05 Y100.96 E14.10307
G1 X59.169 Y100.408 E14.11311
G1 X59.365 Y99.878 E14.12315
G1 X59.633 Y99.382 E14.13318
G1 X59.969 Y98.928 E14.14322
G1 X60.179 Y98.702 E14.1487
G1 X60.302 Y98.579 E14.15179
G1 X60.728 Y98.209 E14.16182
G1 X61.203 Y97.903 E14.17187
M204 S625
M205 X6 Y6
G0 F4285.7 X61.456 Y98.243
M204 S500
M205 X5 Y5
G1 F1200 X61.945 Y98.03 E14.18135
G1 X62.461 Y97.892 E14.19084
G1 X63.123 Y97.83 E14.20266
G1 X169.877 Y97.83 E16.10032
G1 X170.41 Y97.87 E16.10982
G1 X170.93 Y97.989 E16.1193
G1 X171.427 Y98.184 E16.12879
G1 X171.89 Y98.451 E16.13829
G1 X172.307 Y98.785 E16.14779
G1 X172.67 Y99.176 E16.15727
G1 X172.97 Y99.618 E16.16677
G1 X173.202 Y100.099 E16.17626
G1 X173.358 Y100.61 E16.18576
G1 X173.447 Y101.364 E16.19926
G1 X173.57 Y113.441 E16.41395
G1 X173.535 Y113.974 E16.42344
G1 X173.422 Y114.495 E16.43292
G1 X173.231 Y114.994 E16.44242
G1 X172.969 Y115.459 E16.4519
G1 X172.524 Y116.001 E16.46437
G1 X172.401 Y116.124 E16.46746
G1 X171.997 Y116.473 E16.47695
G1 X171.544 Y116.757 E16.48646
G1 X171.055 Y116.97 E16.49594
G1 X170.539 Y117.108 E16.50543
G1 X169.877 Y117.17 E16.51725
G1 X63.123 Y117.17 E18.41491
G1 X62.59 Y117.13 E18.42441
G1 X62.07 Y117.011 E18.43389
G1 X61.573 Y116.816 E18.44338
G1 X61.11 Y116.549 E18.45288
G1 X60.599 Y116.124 E18.4647
G1 X60.476 Y116.001 E18.46779
G1 X60.127 Y115.597 E18.47728
G1 X59.843 Y115.144 E18.48678
G1 X59.63 Y114.655 E18.49627
G1 X59.492 Y114.139 E18.50576
G1 X59.43 Y113.477 E18.51758
G1 X59.43 Y101.523 E18.73007
G1 X59.47 Y100.99 E18.73958
G1 X59.589 Y100.47 E18.74906
G1 X59.784 Y99.973 E18.75855
G1 X60.051 Y99.51 E18.76805
G1 X60.476 Y98.999 E18.77986
G1 X60.599 Y98.876 E18.78296
G1 X61.003 Y98.527 E18.79245
G1 X61.456 Y98.243 E18.80195
M204 S625
M205 X6 Y6
G0 F4285.7 X61.706 Y98.587
M204 S500
M205 X5 Y5
G1 F1200 X62.171 Y98.397 E18.81088
G1 X62.659 Y98.284 E18.81978
G1 X63.123 Y98.25 E18.82805
G1 X169.877 Y98.25 E20.72571
G1 X170.377 Y98.29 E20.73463
G1 X170.864 Y98.409 E20.74354
G1 X171.327 Y98.603 E20.75246
G1 X171.752 Y98.869 E20.76137
G1 X172.13 Y99.199 E20.77029
G1 X172.451 Y99.584 E20.7792
G1 X172.707 Y100.016 E20.78813
G1 X172.89 Y100.483 E20.79705
G1 X172.998 Y100.972 E20.80595
G1 X173.027 Y101.368 E20.81301
G1 X173.15 Y113.445 E21.0277
G1 X173.115 Y113.945 E21.03661
G1 X173.001 Y114.434 E21.04553
G1 X172.811 Y114.898 E21.05445
G1 X172.55 Y115.326 E21.06336
G1 X172.227 Y115.704 E21.0722
G1 X172.104 Y115.827 E21.07529
G1 X171.723 Y116.153 E21.0842
G1 X171.294 Y116.413 E21.09312
G1 X170.829 Y116.603 E21.10205
G1 X170.341 Y116.716 E21.11095
G1 X169.877 Y116.75 E21.11922
G1 X63.123 Y116.75 E23.01688
G1 X62.623 Y116.71 E23.02579
G1 X62.136 Y116.591 E23.03471
G1 X61.673 Y116.397 E23.04363
G1 X61.248 Y116.131 E23.05254
G1 X60.896 Y115.827 E23.06081
G1 X60.773 Y115.704 E23.0639
G1 X60.447 Y115.323 E23.07282
G1 X60.187 Y114.894 E23.08173
G1 X59.997 Y114.429 E23.09066
G1 X59.884 Y113.941 E23.09957
G1 X59.85 Y113.477 E23.10784
G1 X59.85 Y101.523 E23.32033
G1 X59.89 Y101.023 E23.32925
G1 X60.009 Y100.536 E23.33816
G1 X60.203 Y100.073 E23.34708
G1 X60.469 Y99.648 E23.35599
G1 X60.773 Y99.296 E23.36426
G1 X60.896 Y99.173 E23.36735
G1 X61.277 Y98.847 E23.37627
G1 X61.706 Y98.587 E23.38518
M204 S625
M205 X6 Y6
G0 F4285.7 X61.953 Y98.933
M204 S500
M205 X5 Y5
G1 F1200 X62.39 Y98.77 E23.39348
G1 X62.849 Y98.684 E23.40178
G1 X63.123 Y98.67 E23.40665
G1 X169.877 Y98.67 E25.30431
G1 X170.342 Y98.71 E25.31261
G1 X170.794 Y98.829 E25.32091
G1 X171.219 Y99.022 E25.32921
G1 X171.604 Y99.286 E25.33751
G1 X171.939 Y99.611 E25.34581
G1 X172.214 Y99.989 E25.35412
G1 X172.42 Y100.407 E25.3624
G1 X172.552 Y100.855 E25.3707
G1 X172.607 Y101.372 E25.37994
G1 X172.73 Y113.449 E25.59464
G1 X172.695 Y113.915 E25.60294
G1 X172.581 Y114.368 E25.61125
G1 X172.391 Y114.794 E25.61954
G1 X172.132 Y115.182 E25.62783
G1 X171.93 Y115.407 E25.63321
G1 X171.807 Y115.53 E25.6363
G1 X171.45 Y115.831 E25.6446
G1 X171.047 Y116.067 E25.6529
G1 X170.61 Y116.23 E25.66119
G1 X170.151 Y116.316 E25.66949
G1 X169.877 Y116.33 E25.67437
G1 X63.123 Y116.33 E27.57203
G1 X62.658 Y116.29 E27.58032
G1 X62.206 Y116.171 E27.58863
G1 X61.781 Y115.978 E27.59693
G1 X61.396 Y115.714 E27.60523
G1 X61.193 Y115.53 E27.6101
G1 X61.07 Y115.407 E27.61319
G1 X60.769 Y115.05 E27.62149
G1 X60.533 Y114.647 E27.62979
G1 X60.37 Y114.21 E27.63808
G1 X60.284 Y113.751 E27.64638
G1 X60.27 Y113.477 E27.65126
G1 X60.27 Y101.523 E27.86375
G1 X60.31 Y101.058 E27.87205
G1 X60.429 Y100.606 E27.88036
G1 X60.622 Y100.181 E27.88866
G1 X60.886 Y99.796 E27.89695
G1 X61.07 Y99.593 E27.90182
G1 X61.193 Y99.47 E27.90492
G1 X61.55 Y99.169 E27.91322
G1 X61.953 Y98.933 E27.92152
M204 S625
M205 X6 Y6
G0 F4285.7 X61.82 Y99.492
M204 S500
M205 X5 Y5
G1 F1200 X62.196 Y99.284 E27.92916
G1 X62.603 Y99.149 E27.93678
G1 X63.123 Y99.09 E27.94608
G1 X169.877 Y99.09 E29.84374
G1 X170.305 Y99.13 E29.85138
G1 X170.717 Y99.248 E29.859
G1 X171.101 Y99.441 E29.86664
G1 X171.443 Y99.701 E29.87427
G1 X171.73 Y100.021 E29.88192
G1 X171.953 Y100.387 E29.88953
G1 X172.105 Y100.789 E29.89717
G1 X172.187 Y101.376 E29.90771
G1 X172.31 Y113.453 E30.1224
G1 X172.274 Y113.881 E30.13004
G1 X172.16 Y114.295 E30.13767
G1 X171.971 Y114.681 E30.14531
G1 X171.633 Y115.11 E30.15502
G1 X171.51 Y115.233 E30.15811
G1 X171.18 Y115.508 E30.16575
G1 X170.804 Y115.716 E30.17338
G1 X170.397 Y115.851 E30.18101
G1 X169.877 Y115.91 E30.19031
G1 X63.123 Y115.91 E32.08797
G1 X62.695 Y115.87 E32.09561
G1 X62.283 Y115.752 E32.10323
G1 X61.899 Y115.559 E32.11086
G1 X61.49 Y115.233 E32.12016
G1 X61.367 Y115.11 E32.12325
G1 X61.092 Y114.78 E32.13089
G1 X60.884 Y114.404 E32.13853
G1 X60.749 Y113.997 E32.14615
G1 X60.69 Y113.477 E32.15545
G1 X60.69 Y101.523 E32.36795
G1 X60.73 Y101.095 E32.37559
G1 X60.848 Y100.683 E32.38321
G1 X61.041 Y100.299 E32.39085
G1 X61.367 Y99.89 E32.40014
G1 X61.49 Y99.767 E32.40324
G1 X61.82 Y99.492 E32.41087
M204 S625
M205 X6 Y6
G0 F4285.7 X62.088 Y99.819
M204 S500
M205 X5 Y5
G1 F1200 X62.433 Y99.64 E32.41778
G1 X62.807 Y99.537 E32.42468
G1 X63.123 Y99.51 E32.43031
G1 X169.877 Y99.51 E34.32797
G1 X170.263 Y99.55 E34.33487
G1 X170.633 Y99.668 E34.34177
G1 X170.971 Y99.859 E34.34867
G1 X171.263 Y100.115 E34.35558
G1 X171.496 Y100.426 E34.36248
G1 X171.661 Y100.777 E34.36938
G1 X171.751 Y101.155 E34.37629
G1 X171.767 Y101.381 E34.38031
G1 X171.89 Y113.458 E34.59501
G1 X171.854 Y113.844 E34.6019
G1 X171.74 Y114.216 E34.60881
G1 X171.552 Y114.556 E34.61572
G1 X171.336 Y114.813 E34.62169
G1 X171.213 Y114.936 E34.62478
G1 X170.912 Y115.181 E34.63168
G1 X170.567 Y115.36 E34.63859
G1 X170.193 Y115.463 E34.64548
G1 X169.877 Y115.49 E34.65112
G1 X63.123 Y115.49 E36.54878
G1 X62.737 Y115.45 E36.55568
G1 X62.367 Y115.332 E36.56258
G1 X62.029 Y115.141 E36.56948
G1 X61.787 Y114.936 E36.57512
G1 X61.664 Y114.813 E36.57821
G1 X61.419 Y114.512 E36.58511
G1 X61.24 Y114.167 E36.59202
G1 X61.137 Y113.793 E36.59891
G1 X61.11 Y113.477 E36.60455
G1 X61.11 Y101.523 E36.81705
G1 X61.15 Y101.137 E36.82394
G1 X61.268 Y100.767 E36.83085
G1 X61.459 Y100.429 E36.83775
G1 X61.664 Y100.187 E36.84339
G1 X61.787 Y100.064 E36.84648
G1 X62.088 Y99.819 E36.85338
M204 S625
M205 X6 Y6
G0 F4285.7 X62.352 Y100.148
M204 S500
M205 X5 Y5
G1 F1200 X62.663 Y100.004 E36.85947
G1 X63.123 Y99.93 E36.86775
G1 X169.877 Y99.93 E38.76541
G1 X170.217 Y99.97 E38.77149
G1 X170.539 Y100.087 E38.77758
G1 X170.824 Y100.276 E38.78366
G1 X171.059 Y100.526 E38.78976
G1 X171.229 Y100.823 E38.79584
G1 X171.326 Y101.151 E38.80192
G1 X171.347 Y101.385 E38.8061
G1 X171.47 Y113.462 E39.02079
G1 X171.434 Y113.802 E39.02687
G1 X171.319 Y114.125 E39.03296
G1 X171.039 Y114.516 E39.04151
G1 X170.916 Y114.639 E39.04461
G1 X170.648 Y114.852 E39.05069
G1 X170.337 Y114.996 E39.05678
G1 X169.877 Y115.07 E39.06507
G1 X63.123 Y115.07 E40.96272
G1 X62.783 Y115.03 E40.96881
G1 X62.461 Y114.913 E40.9749
G1 X62.084 Y114.639 E40.98318
G1 X61.961 Y114.516 E40.98627
G1 X61.748 Y114.248 E40.99236
G1 X61.604 Y113.937 E40.99845
G1 X61.53 Y113.477 E41.00673
G1 X61.53 Y101.523 E41.21923
G1 X61.57 Y101.183 E41.22531
G1 X61.687 Y100.861 E41.2314
G1 X61.961 Y100.484 E41.23969
G1 X62.084 Y100.361 E41.24278
G1 X62.352 Y100.148 E41.24886
M204 S625
M205 X6 Y6
G0 F4285.7 X62.611 Y100.483
M204 S500
M205 X5 Y5
G1 F1200 X62.881 Y100.378 E41.25401
G1 X63.123 Y100.35 E41.25835
G1 X169.877 Y100.35 E43.156
G1 X170.163 Y100.39 E43.16114
G1 X170.428 Y100.506 E43.16628
G1 X170.651 Y100.69 E43.17142
G1 X170.815 Y100.928 E43.17655
G1 X170.908 Y101.202 E43.1817
G1 X170.927 Y101.389 E43.18504
G1 X171.05 Y113.466 E43.39973
G1 X171.013 Y113.753 E43.40487
G1 X170.899 Y114.019 E43.41002
G1 X170.742 Y114.219 E43.41454
G1 X170.619 Y114.342 E43.41763
G1 X170.389 Y114.517 E43.42277
G1 X170.119 Y114.622 E43.42792
G1 X169.877 Y114.65 E43.43225
G1 X63.123 Y114.65 E45.3299
G1 X62.837 Y114.61 E45.33504
G1 X62.572 Y114.494 E45.34018
G1 X62.381 Y114.342 E45.34452
G1 X62.258 Y114.219 E45.34761
G1 X62.083 Y113.989 E45.35275
G1 X61.978 Y113.719 E45.3579
G1 X61.95 Y113.477 E45.36223
G1 X61.95 Y101.523 E45.57472
G1 X61.99 Y101.237 E45.57986
G1 X62.106 Y100.972 E45.585
G1 X62.258 Y100.781 E45.58934
G1 X62.381 Y100.658 E45.59243
G1 X62.611 Y100.483 E45.59757
M204 S625
M205 X6 Y6
G0 F4285.7 X62.861 Y100.827
M204 S500
M205 X5 Y5
G1 F1200 X63.123 Y100.77 E45.60233
G1 X169.877 Y100.77 E47.49999
G1 X170.097 Y100.81 E47.50396
G1 X170.289 Y100.924 E47.50793
G1 X170.43 Y101.098 E47.51192
G1 X170.507 Y101.394 E47.51735
G1 X170.63 Y113.471 E47.73204
G1 X170.593 Y113.691 E47.73601
G1 X170.445 Y113.922 E47.74089
G1 X170.322 Y114.045 E47.74398
G1 X170.139 Y114.173 E47.74795
G1 X169.877 Y114.23 E47.75271
G1 X63.123 Y114.23 E49.65037
G1 X62.903 Y114.19 E49.65435
G1 X62.678 Y114.045 E49.6591
G1 X62.555 Y113.922 E49.6622
G1 X62.427 Y113.739 E49.66617
G1 X62.37 Y113.477 E49.67093
G1 X62.37 Y101.523 E49.88343
G1 X62.41 Y101.303 E49.8874
G1 X62.555 Y101.078 E49.89216
G1 X62.678 Y100.955 E49.89525
G1 X62.861 Y100.827 E49.89922
M204 S625
M205 X6 Y6
G0 F4285.7 X62.975 Y101.252
M204 S500
M205 X5 Y5
G1 F1200 X63.123 Y101.19 E49.90207
G1 X169.877 Y101.19 E51.79973
G1 X169.999 Y101.229 E51.80201
G1 X170.076 Y101.332 E51.80429
G1 X170.087 Y101.398 E51.80548
G1 X170.21 Y113.475 E52.02017
G1 X170.148 Y113.625 E52.02306
